!!!!SEGMENT: 058-1-BH-001.krn
!!!COM: Chopin, Fryderyk
!!!OTL: SONATE. I. All|o. maestoso.
!!!OPS: Op. 58
!!!OPR: SONATE | pour le Piano
!!!OMV: 1
!!!PPR: Breitkopf & Härtel
!!!PPP: Leipzig
!!!NIFC-rismID: 1001024762
!!!NIFC-shelfmark: PL-Wbfc 685/n
!!!OMD: All°. maestoso
**kern	**fing	**kern	**fing	**dynam
*part1	*	*part1	*	*part1
*staff2	*	*staff1	*	*
*clefF4	*	*clefG2	*	*
*k[f#c#]	*	*k[f#c#]	*	*
*b:	*	*b:	*	*
*M4/4	*	*M4/4	*	*
*met(c)	*	*met(c)	*	*
*>A	*	*>A	*	*>A
!	!	!LO:TX:a:t=All°. maestoso.	!	!
4r	.	(16ggLL	.	f
.	.	16ff#	.	.
.	.	16dd	.	.
.	.	16bJJ	.	.
=1!|:	=1!|:	=1!|:	=1!|:	=1!|:
*>B	*	*>B	*	*
*	*	*^	*	*
!	!	!LO:TX:t=P:problem:w źródle brak w tym miejscu kreski taktowej z repetycją	!	!	!
4r	.	2f#)	4rA	.	.
4BB	.	.	4d 4B	.	.
4G 4GG	.	(<4b 4e 4B	2ryy	.	.
4E 4EE	.	4cc# 4b 4g 4c#	.	.	.
*	*	*v	*v	*	*
=2	=2	=2	=2	=2
4F# 4C# 4FF#	.	4a#X) 4f# 4c# 4A#X	.	.
8r	.	8rg	.	.
8E\ 8EE\	.	8f# 8c#< 8A#X< 8F#<	.	<
8D\L 8DD\	.	8bL 8f# 8B<	.	.
8AA#X 8AAA#X	.	8cc# 8f# 8c#	.	.
8BB 8BBB	.	8dd 8b 8f# 8d	.	.
8BJ 8G 8E 8BB	.	8eeJ 8b 8g 8e	.	.
=3	=3	=3	=3	=3
2B 2F# 2D 2BB	.	(2ff# 2dd 2b 2f#	.	[[
4.B 4.G 4.E 4.BB	.	4.aa 4.ee 4.b 4.a	.	.
8c# 8G 8E 8BB	.	8gg 8ee 8b 8g	.	.
=4	=4	=4	=4	=4
2d 2F# 2BB	.	2ff# 2dd 2b 2f#)	.	.
2r	.	8r	.	.
.	.	(8bb	.	.
.	.	16ggLL	.	.
.	.	16ff#	.	.
.	.	16dd	.	.
.	.	16bJJ	.	.
=5	=5	=5	=5	=5
*	*	*^	*	*
4r	.	2f#)	4rG	.	.
4BB	.	.	4d 4B	.	.
4G 4GG	.	(<4b 4e 4B	2ryy	.	.
4E 4EE	.	4cc# 4b 4g 4c#	.	.	.
*	*	*v	*v	*	*
=6	=6	=6	=6	=6
4BB 4BBB	.	4dd 4b 4f# 4d)	.	.
8r	.	8r	.	.
8BB 8BBB	.	8e#X 8d 8G#X	.	.
8AAL 8AAA	.	8f#L 8c# 8F#	.	<
8EE#X 8EEE#X	.	8g#X 8c# 8G#	.	.
8FF# 8FFF#	.	8a 8c# 8A	.	.
8DDJ 8DDD	.	8bJ 8f# 8B	.	[[
!!LO:LB:g=original
=7	=7	=7	=7	=7
2CC# 2CCC#	.	(2cc# 2a 2f# 2c#	.	.
4.C# 4.CC#	.	4.cc# 4.g 4.f# 4.c#	.	.
8C# 8CC#	.	8cc# 8g 8e#X 8c#)	.	.
=8	=8	=8	=8	=8
4F# 4FF#	.	4cc#' 4a#X' 4f#' 4c#'	.	.
4BB 4BBB	.	4dd#X' 4b' 4an' 4d#X'	.	.
2r	.	4bb^ 4b	.	fz
.	.	(<16ccnLL	.	p
.	.	16b	.	.
.	.	16g	.	.
.	.	16eJJ	.	.
=9	=9	=9	=9	=9
*^	*	*	*	*
4rG	4rGG	.	2B)	.	.
4G 4E	4EE	.	.	.	.
2ryy	4Cn 4CCn	.	(>4e 4cn 4G< 4E<	.	.
.	4AA 4AAA	.	4f# 4e 4c 4F#<	.	.
*v	*v	*	*	*	*
=10	=10	=10	=10	=10
4BB 4BBB	.	4d#X 4B 4F#<)	.	.
8r	.	8re	.	.
8BB\ 8AA\	.	8B< 8F#< 8D#X<	.	<
8BB\L 8GG\	.	8eL 8B< 8E<	.	.
8BB 8DD#X	.	8f# 8B< 8F#<	.	.
8E 8BB 8EE	.	8g 8e 8B< 8G<	.	.
8F#J 8Cn 8EE	.	8aJ 8e 8A<	.	.
=11	=11	=11	=11	=11
*	*^	*	*	*
.	.	.	.	.	[[
!LO:TX:t=P:problem:łuk pionowy od 4G do 4EE	!	!	!	!	!
4G 4BB 4EE	.	.	(2b 2g 2e 2B	.	.
16DD#XLL	.	5	.	.	.
16EE	.	5	.	.	.
16GG	.	.	.	.	.
16BBJJ	.	.	.	.	.
4E	1	.	4..dd 4..a 4..e 4..d	.	<
16D#XLL	5	.	.	.	.
16E	5	.	.	.	.
16A	.	.	.	.	.
16cnJJ	.	.	16ccn 16a 16cn	.	.
*	*v	*v	*	*	*
=12	=12	=12	=12	=12
.	.	.	.	[[
2e	.	2b 2g 2B)	.	.
8r	.	8r	.	.
(>8e	.	(<8ee	.	.
16cnLL	.	16ccnLL	.	.
16B	.	16b	.	.
16G	.	16g	.	.
16EJJ	.	16eJJ	.	.
!!LO:LB:g=original
=13	=13	=13	=13	=13
*^	*	*	*	*
*	*^	*	*	*	*
!	!LO:TX:t=P:w źródle łuk kończy się pod nutą:problem	!	!	!	!	!
!	!	!	!	!LO:TX:a:i:t=ten.	!	!
4rB	2Cn/)	4rBBB	.	[2cn	.	.
4B-X 4E	.	4CCn\	.	.	.	.
8A/ 8Fn/	2ryy	8FFn\	.	8c])	.	.
16r	.	4.rDDyy	.	16rf	.	.
(>\16fn	.	.	.	(<16ffn	.	.
16d\LL	.	.	.	16ddLL	.	.
16cn	.	.	.	16ccn	.	.
16A	.	.	.	16a	.	.
16FnJJ	.	.	.	16fnJJ	.	.
=14	=14	=14	=14	=14	=14	=14
!	!	!	!	!LO:TX:a:i:t=ten.	!	!
4re	[<2C#X/)	4rCC	.	[2c#X	.	.
4B 4E#X	.	4CC#X\	.	.	.	.
8A#X 8F#X	8C#\] 8FF#	2ryy	.	8c#])	.	.
16r	4.ryy	.	.	16r	.	.
*ped	*	*	*	*	*	*
!	!	!	!	!LO:TX:i:b:t=cresc. _:problem:dynamics with extention lines	!	!
!	!	!	!	!	!	!LO:HP:i:t=cresc.
(<16FFF#	.	.	.	(<16ff#X	.	<
16FF#LL	.	.	.	16ddLL	.	.
16C#	.	.	.	16cc#	.	.
16F#	.	.	.	16a#X	.	.
*Xped	*	*	*	*	*	*
16A#XJJ)	.	.	.	16f#JJ	.	.
*v	*v	*v	*	*	*	*
=15	=15	=15	=15	=15
*ped	*	*	*	*
8D/	.	8d 8B)	.	.
16r	.	16rg	.	.
(<16FFF#	.	(>16gg	.	.
16FF#LL>	.	16eeLL	.	.
16BB	.	16dd	.	.
16G	.	16b	.	.
*Xped	*	*	*	*
16BJJ)	.	16gJJ	.	.
*ped	*	*	*	*
8D#X/	.	8d#X 8B)	.	.
16r	.	16r	.	.
16FFF#	.	(>16gg#X	.	.
16FF#LL>	.	16eeLL	.	.
16D#	.	16dd#X	.	.
16G#X	.	16b#X	.	.
*Xped	*	*	*	*
16B#XJJ	.	16g#XJJ	.	.
=16	=16	=16	=16	=16
*ped	*	*	*	*
8E	.	8e 8c#)	.	.
16r	.	16r	.	.
16FFF#	.	(>16aa	.	.
16FF#LL	.	16ff#LL	.	.
16C#	.	16ee	.	.
16A	.	16cc#	.	.
*Xped	*	*	*	*
.	.	.	.	.
16c#JJ	.	16aJJ	.	.
*ped	*	*	*	*
8e 8F#	.	8a#X 8c#)	.	.
16r	.	16r	.	.
16FFF#	.	(16aa#X	.	.
16FF#LL	.	16ff#LL	.	.
16C#	.	16ee	.	.
16F#	.	16cc#	.	.
*Xped	*	*	*	*
16eJJ	.	16a#JJ)	.	[
!!LO:LB:g=original
=17	=17	=17	=17	=17
*	*	*^	*	*
!	!	!LO:TUP:a	!	!	!LO:DY:rj
4fn 4d 4Fn	.	(>12bb-XL 12dd 12b-X	2.ryy	.	f
.	.	12aa 12a	.	.	.
.	.	12ggJ 12g	.	.	.
4D 4DD	.	4ffn 4b- 4fn	.	.	.
4E-X 4EE-X	.	4ee-X 4ccn 4g	.	.	.
.	.	8qee-/	.	.	.
4F 4FFn	.	8.ddL	4a 4e-X	.	.
.	.	16ccnJk	.	.	.
=18	=18	=18	=18	=18	=18
!LO:TUP:a	!	!	!	!	!
12B-XL 12BB-X	.	4dd 4a 4d	2.ryy	.	.
12A 12AA	.	.	.	.	.
12GJ 12GG	.	.	.	.	.
4BB- 4BBB-X	.	4dd 4g 4d	.	.	.
4Cn 4CCn	.	4ccn 4a-X 4e-X	.	.	.
.	.	8qcc/	.	.	.
4D 4DD	.	8.b-XL	4f#X 4cn	.	.
.	.	16anJk	.	.	.
*	*	*v	*v	*	*
=19	=19	=19	=19	=19
!	!	!	!	!LO:DY:rj
4E\ 4C#X\ 4BB-X\ 4EE\	.	4g (4c#X 4B-X 4G<)	.	fz
4rBB	.	16F#<LL	.	.
.	.	16G<	.	.
.	.	16B-<	.	<
.	.	16c#JJ	.	.
4rBB	.	16f#LL	.	.
.	.	16g-	.	.
.	.	16b	.	.
.	.	16cc#JJ	.	.
!LO:TX:t=P:problem:łuk pionowy od 4g do 4E	!	!	!	!
4g 4c# 4B- 4E	.	16ff#LL	.	.
.	.	16gg	.	.
.	.	16ggg)	.	.
!	!	!LO:N:vis=16	!	!
.	.	32raa	.	.
.	.	(>32fff#JJk	.	[
=20	=20	=20	=20	=20
!LO:TX:t=P:verical slur:problem	!	!	!	!
8a-X> 8d> 8B-X 8A-X 8Fn	.	16fffn/LL	.	.
.	.	16eeen	.	.
8r	.	16eee-X	.	.
.	.	16dddJJ	.	.
!LO:TX:t=P:łuk nakłada się na nuty:problem	!	!	!	!
(<16ffn>LL	.	16dddLL 16aa-X	.	.
16ee-X>	.	16cccn 16gg	.	.
16dd>	.	16bb-X 16ffny	.	.
16ccn>JJ	.	16aa-JJ 16ee	.	.
16b->LL	.	16ggLL 16dd	.	.
16a-X>	.	16ffny 16ccny	.	.
16g>	.	16ee-y 16b	.	.
16fn>JJ	.	16ddJJ 16a	.	.
16e->LL	.	16ccnyLL 16g	.	.
16d>	.	16b-y 16fny	.	.
16cn>	.	16a-y 16e	.	.
16B-X>JJ	.	16gJJ 16d	.	.
!!LO:LB:g=original
=21	=21	=21	=21	=21
*	*	*^	*	*
!	!	!LO:TX:a:t=P:w źródle brak zakończenia łuku:problem	!	!	!
16A-XLL	.	8fn 8d)	4ryy	.	.
16G	.	.	.	.	.
16Fn	.	(>8r	.	.	.
16E-XJJ	.	.	.	.	.
!	!	!LO:S:s=1:note:problem:note-level slur	!	!	!
16D\LL	.	2f 2A-y<	4c-X	.	.
16C-X	.	.	.	.	.
16AA-	.	.	.	.	.
16FFJJ	.	.	.	.	.
16DDLL>	.	.	N[<4B-X	.	.
16BBB-X	.	.	.	.	.
16AAAn	.	.	.	.	.
16BBB-JJ	.	.	.	.	.
8BB-XL<)	.	8g-XL 8e-X 8B-N] 8G-X<)	4ryy	.	.
(<16r	.	(>16re	.	.	.
16BB-Jk	.	16e-Jk 16cn 16G-	.	.	.
=22	=22	=22	=22	=22	=22
4BBB-X/	.	8.dL	4Fn<	.	<
.	.	16c#XJk	.	.	.
4AAAn/	.	8.enL	4An< 4F<	.	.
.	.	16dJk	.	.	.
4GGG#X/	.	8.fnL 8.Bn< 8.F<	2rDyy	.	.
.	.	16eJk	.	.	.
4GGGn	.	8.b-XL 8.e 8.c#	.	.	[
.	.	16aJ	.	.	.
=23	=23	=23	=23	=23	=23
!	!	!	!	!	!LO:HP:b=2
(>8FFFnL)	.	2aa	1dd 1a	.	<
16AAAL	.	.	.	.	.
16BBB-XJJ	.	.	.	.	.
16BBBnLL	.	.	.	.	.
16CC#	.	.	.	.	.
16CC#X	.	.	.	.	.
16DDJJ	.	.	.	.	.
16DD#XLL	.	8bb-XL	.	.	.
16EE	.	.	.	.	.
16FFn	.	8aa	.	.	.
16FF#XJJ	.	.	.	.	.
16GGLL	.	8gg	.	.	.
16GG#X	.	.	.	.	.
16AA	.	8ffnJ	.	.	.
16BB-XJJ	.	.	.	.	.
=24	=24	=24	=24	=24	=24
16BBnLL	.	8eeL	(<2a	.	.
16Cn	.	.	.	.	.
16C#X	.	8dd	.	.	.
16DJJ	.	.	.	.	.
16D#XLL	.	8ffn	.	.	.
16E	.	.	.	.	.
16Fn	.	8eeJ	.	.	.
16F#XJJ	.	.	.	.	.
16GLL	.	2dd)	8b-XL	.	.
16G#X	.	.	.	.	.
16A	.	.	8a	.	.
16B-XJJ	.	.	.	.	.
16BnLL	.	.	8g	.	.
16cn	.	.	.	.	.
16c#X	.	.	8fnJ	.	.
16dnJJ)	.	.	.	.	[[
!!LO:PB:g=original
=25	=25	=25	=25	=25	=25
!	!	!	!LO:TX:t=P:łuk pionowy od 2aa do 8e:problem	!	!
8GGG^L	.	(>2aa 2dd	8e\L	.	.
!	!	!	!	!	!LO:HP:b=2
16AAAL	.	.	8d\	.	<
16BBB-XJJ	.	.	.	.	.
16BBBnLL	.	.	8fn\	.	.
16CC#	.	.	.	.	.
16CC#X	.	.	8e\J	.	.
16DDJJ	.	.	.	.	.
!	!	!	!LO:TX:t=P:łuk pionowy od 8bb- do 8dn:problem	!	!
16DD#XLL	.	8bb-XL	8dn\)	.	.
16EE	.	.	.	.	.
16FFn	.	8aa	8re	.	.
16FF#XJJ	.	.	.	.	.
16GGLL	.	8gg	4re	.	.
16GG#X	.	.	.	.	.
16AA	.	8ffnJ	.	.	.
16BB-XJJ	.	.	.	.	.
=26	=26	=26	=26	=26	=26
16BBnLL	.	8eeL	&(<2b-X	.	.
16Cn	.	.	.	.	.
16C#X	.	8dd	.	.	.
16DJJ	.	.	.	.	.
16D#XLL	.	8ffn	.	.	.
16E	.	.	.	.	.
16Fn	.	8eeJ	.	.	.
16F#XJJ	.	.	.	.	.
16GLL	.	2dd)	8ccnL	.	.
16G#X	.	.	.	.	.
16A	.	.	8b-	.	.
16B-XJJ	.	.	.	.	.
16BnLL	.	.	8a	.	.
16cn	.	.	.	.	.
16c#X	.	.	8gJ	.	.
16dnyJJ	.	.	.	.	[
=27	=27	=27	=27	=27	=27
*	*	*	*^	*	*
(>8.AAA^L	.	(>2aa	1dd	8g\L	.	.
.	.	.	.	8f#X\	.	.
!	!	!	!	!	!	!LO:HP:b=2
16BBB-XJk	.	.	.	.	.	<
16BBBnLL	.	.	.	8a\	.	.
16CCn	.	.	.	.	.	.
16CC#X	.	.	.	8g\J	.	.
16DDJJ	.	.	.	.	.	.
!	!	!	!	!LO:TX:t=P:łuk pionowy od 8bb- do 8f#:problem	!	!
16DD#XLL	.	8bb-XL	.	8f#\&)	.	.
16EE	.	.	.	.	.	.
16FFn	.	8aa	.	8re	.	.
16FF#XJJ	.	.	.	.	.	.
16GGLL	.	8gg	.	4re	.	.
16GG#X	.	.	.	.	.	.
16AA	.	8ff#J	.	.	.	.
16BB-XJJ	.	.	.	.	.	.
*	*	*	*v	*v	*	*
!!LO:LB:g=original
=28	=28	=28	=28	=28	=28
16BBnLL	.	2ff#	8ee-XL	.	.
16Cn	.	.	.	.	.
16C#X	.	.	8dd	.	.
16DJJ	.	.	.	.	.
16D#XLL	.	.	8ffn	.	.
16E	.	.	.	.	.
16Fn	.	.	8ee-J	.	.
16F#XJJ	.	.	.	.	.
16GLL	.	4ff	8ddL	.	.
16G#X	.	.	.	.	.
16A	.	.	8ccn	.	.
16B-XJJ	.	.	.	.	.
16BnLL	.	4ff	8b-X	.	.
16cn	.	.	.	.	.
16c#X	.	.	8aJ	.	.
16dnyJJ)	.	.	.	.	[[
*	*	*v	*v	*	*
=29	=29	=29	=29	=29
4e-X'	.	4gg') 4g'	.	f
.	.	.	.	.
*Xtuplet	*	*	*	*
!	!	!LO:TX:a:t=P:w źródle nie ma klamry kwadratowej:problem	!	!
12EE-XL	.	(<12r	.	.
12G	.	12B-XL	.	.
12BB-XJ	.	12b-XJ 12g)	.	.
12A-XL	.	(12fnL	.	.
12G	.	12e-X	.	.
12BB-J	.	12ee-XJ 12cc#)	.	.
*ped	*	*	*	*
!LO:TX:t=P:mixed beam:problem	!	!	!	!
(<12EE-/L	.	(12b-/L	.	.
12e-X\	.	12g	.	.
12B-X\J	.	12ggJ 12ee-)	.	.
*Xped	*	*	*	*
=30	=30	=30	=30	=30
*	*	*Xtuplet	*	*
12a-X>\L	.	(>12ccn/L	.	.
12g>	.	12b-X	.	.
12B-X>J)	.	12bb-XJ 12gg)	.	.
!LO:TX:t=P:mixed beam:problem	!	!	!	!
(<12E-X</L	.	12ffn/L	.	.
12b->\	.	12ee-X	.	.
12B-X</J	.	12gggJ 12eee-X	.	.
*ped	*	*	*	*
12gg>L	.	12eee-/L 12bb-X/	.	.
12ee-y>	.	12bb-^> 12gg	.	.
12b->J)	.	12gg^>J 12ee-	.	.
12g>L	.	12ee-^>L 12b-	.	.
12e->	.	12b-^> 12g	.	.
*Xped	*	*	*	*
12B-X>J	.	12g^>J 12e-y	.	.
=31	=31	=31	=31	=31
*^	*	*	*	*
*	*	*	*^	*	*
4CC#X	8CC#XL	.	(>16G#X<LL	4raaayy	.	.
.	.	.	16A<	.	.	.
.	8EJ 8AA	.	16a 16en	.	.	.
.	.	.	16gnyJJ	.	.	.
!	!	!	!LO:TX:b:i:t=cresc. _:problem:dynamics with extention lines	!	!	!
!	!	!	!	!	!	!LO:HP:i:t=cresc.
4DD	8DDL	.	8ryy	16fnLL	.	<
.	.	.	.	16e	.	.
.	8AAJ	.	8bL 8g#X	16d	.	.
.	.	.	.	16fJJ	.	.
2ryy	8AAAL	.	8cc#J 8a	16c#LL	.	.
.	.	.	.	16e	.	.
.	8AAJ 8CC#	.	4a^>	16A	.	.
.	.	.	.	16g#JJ	.	.
!	!LO:TX:t=P:mixed beam:problem	!	!	!	!	!
.	8DD/L	.	.	16fLL	.	.
.	.	.	.	16e	.	.
.	8Fn\J	.	8b 8a-X	16d	.	.
.	.	.	.	16d-XJJ	.	.
*v	*v	*	*	*	*	*
!!LO:LB:g=original
=32	=32	=32	=32	=32	=32
8EEL	.	8ryy	16cnLL	.	.
.	.	.	16d	.	.
8GJ 8Cn	.	4ccn^	16c	.	.
.	.	.	16b-XJJ	.	.
8FFnL	.	.	16aLL	.	.
.	.	.	16g	.	.
8AJ 8C	.	8dd 8cc	16fn	.	.
.	.	.	16aJJ	.	.
8GG#XL	.	8rdd	16eLL	.	.
.	.	.	16f	.	.
8dJ 8B 8E	.	4ee	16e 16ee	.	.
.	.	.	16ddJJ	.	.
8AAL	.	.	16cc#XLL	.	.
.	.	.	16b-	.	.
!	!	!LO:TX:t=P:cross-measure beam:problem	!	!	!
8eJ 8A 8C#X	.	8gg 8ee	16a	.	.
.	.	.	16b-JJ	.	[[
=33	=33	=33	=33	=33	=33
*^	*	*	*	*	*
!LO:TX:t=P:łuk pionowy od 8fn do 8D:problem	!	!	!	!	!	!
8fn 8A 8D	4.ryy	.	(>8ffn/ 8dd/ 8a/)	8rByy	.	.
4.AAA 4.AA	.	.	4b-X^	16B-XLL	.	.
.	.	.	.	16aJJ 16fn	.	.
.	.	.	.	16gLL 16e	.	.
.	.	.	.	16f	.	.
.	8G 8c#X	.	8b-	16e	.	.
.	.	.	.	16gJJ	.	.
!	!	!	!	!LO:TX:t=P:mixed beam:problem	!	!
8rGG	4.ryy	.	8rg	16A</LL	.	.
.	.	.	.	16B-X</	.	.
!LO:N:n=1:vis=4	!	!	!	!	!	!
4.AAA 4.AA	.	.	4a^	16A</	.	.
.	.	.	.	16g\JJ 16e\	.	.
.	.	.	.	16fLL 16d	.	.
.	.	.	.	16e	.	.
.	8Fn 8A	.	16b-LL	16d	.	.
.	.	.	16aJJ	16fJJ	.	.
=34	=34	=34	=34	=34	=34	=34
!	!	!	!	!LO:TX:t=P:mixed beam:problem	!	!
8rGG	4.ryy	.	8re	16G</LL	.	.
.	.	.	.	16A</	.	.
!LO:N:n=2:vis=4	!	!	!	!	!	!
4.AA^> 4.AAA	.	.	4g^	16G</	.	.
.	.	.	.	16fn\JJ 16d\	.	.
.	.	.	.	16eLL 16c#	.	.
.	.	.	.	16d	.	.
!	!	!	!LO:N:vis=4	!	!	!
.	8B-X	.	8g	16c#	.	.
.	.	.	.	16eJJ	.	.
!	!	!	!	!LO:TX:t=P:mixed beam:problem	!	!
8rGG	4.ryy	.	8rg	16Fn</LL	.	.
.	.	.	.	16G</	.	.
!LO:N:n=2:vis=4	!	!	!	!	!	!
[<4.AA 4.AAA	.	.	4f	16F</	.	.
.	.	.	.	16e\JJ 16c#X\	.	.
.	.	.	.	16dLL 16Bn	.	.
.	.	.	.	16c#	.	.
.	(>8G#	.	16gnLL	16B	.	.
.	.	.	[>16fJJ	16dJJ	.	.
!!LO:LB:g=original
=35	=35	=35	=35	=35	=35	=35
!	!	!	!LO:TX:t=P:the tie doesn't have an ending:problem	!	!	!
2AA\]	8A\)	.	16fnXLL]	8c#	.	>
.	.	.	16e	.	.	.
!	!	!	!	!LO:N:vis=4.	!	!
.	4.B-X\	.	16G	4G	.	.
.	.	.	16dJJ	.	.	.
.	.	.	16fLL	.	.	.
.	.	.	16e	.	.	.
.	.	.	16c#	16ryy	.	.
!	!	!	!	!LO:N:vis=4	!	!
.	.	.	16eJJ	16e	.	]
!	!	!	!	!LO:N:vis=4	!	!
8rA	2AA\	.	16ALL	8A	.	>
.	.	.	16B-	.	.	.
!	!	!	!	!LO:N:vis=4.	!	!
4.B-\ 4.E\	.	.	16G	16G	.	.
.	.	.	16dJJ	8.d	.	.
.	.	.	16fLL	.	.	.
.	.	.	16e	.	.	.
.	.	.	16c#	16ryy	.	.
!	!	!	!	!LO:N:vis=4	!	!
.	.	.	16eJJ	16e	.	]
=36	=36	=36	=36	=36	=36	=36
8rA	2AA\	.	16ALL	8rDyy	.	>
.	.	.	16B-X	.	.	.
!	!	!	!	!LO:N:vis=4.	!	!
4.B-X\ 4.E\	.	.	16G	16G	.	.
.	.	.	16dJJ	8.d	.	.
.	.	.	16fnLL	.	.	.
.	.	.	16e	.	.	.
.	.	.	16c#	16ryy	.	.
!	!	!	!	!LO:N:vis=4	!	!
.	.	.	16eJJ	16e	.	]
8rA	2AA\	.	16ALL	8ryy	.	>
.	.	.	16B-	.	.	.
!LO:N:vis=4	!	!	!	!LO:N:vis=4.	!	!
4.B-\ 4.E\	.	.	16G	16G	.	.
.	.	.	16dJJ	8.d	.	.
.	.	.	16fnLL	.	.	.
.	.	.	16e	.	.	.
.	.	.	16c#	16ryy	.	.
!	!	!	!	!LO:N:vis=4	!	!
.	.	.	16eJJ	16e	.	]
=37	=37	=37	=37	=37	=37	=37
*	*^	*	*	*	*	*
!	!	!	!	!	!LO:N:vis=4	!	!
8rG	2AA\	4.ryy	.	16ALL	8ryy	.	>
.	.	.	.	16B-X	.	.	.
!LO:N:n=1:vis=4	!	!	!	!	!LO:N:vis=4	!	!
4.B-X\ 4.E\	.	.	.	16G	16G	.	.
.	.	.	.	16dJJ	8d	.	.
.	.	.	.	16fnLL	.	.	.
.	.	.	.	16e	16ryy	.	.
.	.	8A\	.	16c#	4c#	.	]]
.	.	.	.	16fJJ	.	.	<
2rD	2rFFFyy	4.ryy	.	16aLL	.	.	.
.	.	.	.	16g	.	.	.
.	.	.	.	16e	4.ryy	.	.
.	.	.	.	16aJJ	.	.	.
.	.	.	.	16ccn/LL	.	.	.
.	.	.	.	16b-X	.	.	.
.	.	8ryy	.	16g	.	.	.
.	.	.	.	16ddJJ	.	.	.
*	*v	*v	*	*	*	*	*
*	*	*	*v	*v	*	*
!!LO:LB:g=original
=38	=38	=38	=38	=38	=38
*	*^	*	*	*	*
*ped	*	*	*	*	*	*
4AAA	2ryy	2.ryy	.	16ffnLL	.	.
.	.	.	.	16ee	.	.
.	.	.	.	16cc#	.	.
.	.	.	.	16ffJJ	.	.
4r	.	.	.	16aaLL	.	.
.	.	.	.	16gg	.	.
.	.	.	.	16ee	.	.
.	.	.	.	16aaJJ	.	.
*clefG2	*	*	*	*	*	*
8rg	8ryy	.	.	16cccnLL	.	.
.	.	.	.	16bb-X	.	.
[>4.e	8eL	.	.	16gg	.	.
.	.	.	.	16dddJJ	.	.
.	8a	[>4a/	.	16fffnyLL	.	[
.	.	.	.	16eee	.	.
.	[>8cc#XJ	.	.	16ccc#X	.	.
.	.	.	.	16fffJJ	.	.
*	*v	*v	*	*	*	*
*v	*v	*	*	*	*
=39	=39	=39	=39	=39
*	*	*8va	*	*
4gg 4cc#] 4a] 4e]	.	16aaaLL	.	.
.	.	16ggg	.	.
.	.	16eee	.	.
.	.	16aaaJJ	.	.
4r	.	16ccccnLL	.	.
.	.	16bbb	.	.
.	.	16bbb-X	.	.
.	.	16gggJJ	.	.
*	*	*X8va	*	*
!	!	!LO:TX:a:t=loco	!	!
!	!	!LO:TX:b:i:t=dim. _:problem:dynamics with extention lines	!	!
!	!	!	!	!LO:HP:b:i:t=dim.:ext=ud
2r	.	16eeeLL	.	>
.	.	16cccn	.	.
.	.	16bbn	.	.
.	.	16bb-XJJ	.	.
.	.	16ggLL	.	.
.	.	16ee	.	.
.	.	16cc	.	.
.	.	16bnJJ	.	.
*clefF4	*	*	*	*
=40	=40	=40	=40	=40
*	*^	*	*	*
*	*	*	*^	*	*
1rD	.	.	16b-XLL	2.ryy	.	.
.	.	.	16g	.	.	.
.	.	.	16e	.	.	.
*Xped	*	*	*	*	*	*
.	.	.	16c#XJJ	.	.	]
.	.	.	16cnLL	.	.	.
.	.	.	16Bn	.	.	.
.	.	.	16B-X<	.	.	.
.	.	.	16A<JJ	.	.	.
.	.	.	16G#<LL	.	.	.
.	.	.	16G<n	.	.	.
.	.	.	16E<	.	.	.
.	.	.	16C#X<JJ	.	.	.
.	2	.	16BBn<L	16ryy	.	.
.	.	3	16GG#<	16GG#<\	.	.
.	3	.	16BB<	16ryy	.	.
.	.	2	16AA<J)	16AA<\	.	.
*	*v	*v	*	*	*	*
*	*	*v	*v	*	*
!!LO:PB:g=original
=41	=41	=41	=41	=41
*ped	*	*	*	*
*tuplet	*	*	*	*
!LO:TX:t=P:w źródle oznaczenie 2x "3" - 2 triole, a nie 1 sekstola:problem	!	!LO:TX:a:i:t=sostenuto	!	!
!LO:TUP:a	!	!	!	!
(>12DDL	.	4r	.	.
12F#	.	.	.	.
12d	.	.	.	.
12A	.	(>2ff#	.	.
*Xped	*	*	*	*
12F#	.	.	.	.
*Xtuplet	*	*	*	*
12f#J)	.	.	.	.
*ped	*	*	*	*
(12AAL	.	.	.	.
12F#	.	.	.	.
12d	.	.	.	.
12A	.	8ggL	.	.
12F#	.	.	.	.
.	.	8ff#J	.	.
*Xped	*	*	*	*
12f#J)	.	.	.	.
=42	=42	=42	=42	=42
*ped	*	*	*	*
(12DL	.	4ee	.	.
12F#	.	.	.	.
12d	.	.	.	.
12A	.	4dd)	.	.
12F#	.	.	.	.
*Xped	*	*	*	*
12f#J)	.	.	.	.
*ped	*	*	*	*
(12AAL	.	4r	.	.
12F#	.	.	.	.
12d	.	.	.	.
12A	.	(>8f#L	.	.
12F#	.	.	.	.
.	.	8cc#J	.	.
*Xped	*	*	*	*
12f#J)	.	.	.	.
=43	=43	=43	=43	=43
*ped	*	*	*	*
(>12DDL	.	8bL	.	.
12F#	.	.	.	.
.	.	8a	.	.
12d	.	.	.	.
12A	.	8cc#	.	.
12F#	.	.	.	.
.	.	8ddJ	.	.
*Xped	*	*	*	*
12f#J	.	.	.	.
*ped	*	*	*	*
12DL	.	8ee#XL	.	.
12F#	.	.	.	.
.	.	8ff#	.	.
12d	.	.	.	.
12B	.	8.bb	.	.
12F#	.	.	.	.
12f#J)	.	.	.	.
*Xped	*	*	*	*
.	.	16aaJk	.	.
=44	=44	=44	=44	=44
*ped	*	*	*	*
(>12EEL	.	2aa	.	.
12G	.	.	.	.
12e	.	.	.	.
12B	.	.	.	.
12G	.	.	.	.
*Xped	*	*	*	*
12gJ	.	.	.	.
*ped	*	*	*	*
12EL	.	4gg)	.	.
12G	.	.	.	.
12e	.	.	.	.
12cn	.	4r	.	.
12G	.	.	.	.
*Xped	*	*	*	*
12gJ)	.	.	.	.
=45	=45	=45	=45	=45
*ped	*	*	*	*
(>12EEL	.	(>2gg	.	.
12G	.	.	.	.
12e	.	.	.	.
12c#X	.	.	.	.
12G	.	.	.	.
*Xped	*	*	*	*
12gJ)	.	.	.	.
*ped	*	*	*	*
(12C#L	.	8ff#L	.	.
12G	.	.	.	.
.	.	8dd#X	.	.
12e	.	.	.	.
12c#	.	8ff#	.	.
12G	.	.	.	.
.	.	8eeJ	.	.
*Xped	*	*	*	*
12gJ)	.	.	.	.
!!LO:LB:g=original
=46	=46	=46	=46	=46
*ped	*	*	*	*
(12EL	.	4ee)	.	.
12G	.	.	.	.
12e	.	.	.	.
12c#	.	4g	.	.
*Xped	*	*	*	*
12G	.	.	.	.
12gJ)	.	.	.	.
*ped	*	*	*	*
(12C#L	.	4r	.	.
12G	.	.	.	.
12e	.	.	.	.
12c#	.	(>8.bL	.	.
12G	.	.	.	.
*Xped	*	*	*	*
12gJ)	.	.	.	.
.	.	16cc#Jk	.	.
=47	=47	=47	=47	=47
*ped	*	*	*	*
(>12EEL	.	8bL	.	.
12G	.	.	.	.
.	.	8a	.	.
12e	.	.	.	.
12c#	.	8cc#	.	.
12G	.	.	.	.
.	.	8ddJ	.	.
12gJ	.	.	.	.
12EL	.	8eeL	.	.
12G	.	.	.	.
.	.	8gg	.	.
12e	.	.	.	.
12c#	.	8.ccc#	.	.
12G	.	.	.	.
*Xped	*	*	*	*
12gJ)	.	.	.	.
.	.	16bbJk	.	.
=48	=48	=48	=48	=48
*ped	*	*	*	*
12E#XL	.	2gg#X	.	.
12B	.	.	.	.
12g#X>	.	.	.	.
12d	.	.	.	.
12B	.	.	.	.
*Xped	*	*	*	*
12dd>J	.	.	.	.
*ped	*	*	*	*
12F#L	.	4aa/	.	.
12A	.	.	.	.
12a	.	.	.	.
12d	.	8.ggnL>	.	.
12A	.	.	.	.
*Xped	*	*	*	*
12a>J	.	.	.	.
.	.	16ff#Jk	.	.
=49	=49	=49	=49	=49
*ped	*	*	*	*
(12F#L	.	4.ff#/	.	.
12c#	.	.	.	.
12a#X>	.	.	.	.
12e>	.	.	.	.
*Xped	*	*	*	*
12c#>)	.	.	.	.
.	.	8ee	.	.
12a#>J	.	.	.	.
*ped	*	*	*	*
(>12BL	.	4dd/	.	.
12an	.	.	.	.
*Xped	*	*	*	*
12dJ)	.	.	.	.
*ped	*	*	*	*
(12EL	.	8.eeL	.	.
12g#X	.	.	.	.
.	.	.	.	.
12dJ)	.	.	.	.
*Xped	*	*	*	*
.	.	16bJk	.	.
=50	=50	=50	=50	=50
*ped	*	*	*	*
(12AL	.	8ddL	.	.
12gn	.	.	.	.
*Xped	*	*	*	*
.	.	8cc#J	.	.
12eJ)	.	.	.	.
*ped	*	*tuplet	*	*
!	!	!LO:TUP:a	!	!
(12AAL	.	12cc#L	.	.
12g	.	12b	.	.
*Xped	*	*	*	*
12c#J)	.	12aJ	.	.
*ped	*	*	*	*
(>12DL	.	4a	.	.
12A	.	.	.	.
12f#J	.	.	.	.
12dL	.	8.ff#L)	.	.
12A	.	.	.	.
*Xped	*	*	*	*
12aJ)	.	.	.	.
.	.	(>16ff#Jk	.	.
!!LO:LB:g=original
=51	=51	=51	=51	=51
*ped	*	*	*	*
(>12GL	.	4.ff#	.	.
12c#	.	.	.	.
12b-X	.	.	.	.
12e	.	.	.	.
12c#	.	.	.	.
.	.	8ee	.	.
*Xped	*	*	*	*
12b-J)	.	.	.	.
!	!	!LO:TUP:a	!	!
*ped	*	*	*	*
(>12F#L	.	(10cc#L	.	.
12A	.	.	.	.
.	.	10dd	.	.
12a	.	.	.	.
.	.	10ee	.	.
12d	.	.	.	.
.	.	10gg	.	.
12A	.	.	.	.
*Xped	*	*	*	*
.	.	10ff#J)	.	.
12aJ)	.	.	.	.
=52	=52	=52	=52	=52
*ped	*	*	*	*
(>12C#L	.	4a	.	.
12G	.	.	.	.
12e	.	.	.	.
!	!	!LO:TUP:b:problem:klamra łukowa	!	!
12A	.	12cc#L>	.	.
12G	.	12.b	.	.
*Xped	*	*	*	*
12eJ)	.	.	.	.
.	.	24aJk	.	.
(>12DL	.	4a)	.	.
12F#	.	.	.	.
12d	.	.	.	.
*ped	*	*	*	*
12G#X	.	(>4bT	.	.
12F#	.	.	.	.
*Xped	*	*	*	*
12f#J)	.	.	.	.
.	.	16qqa/LL	.	.
.	.	16qqb/JJ	.	.
=53	=53	=53	=53	=53
*ped	*	*	*	*
(>12C#L	.	4cc#	.	.
12F#	.	.	.	<
12c#	.	.	.	.
12A	.	8.b#XL	.	.
12F#	.	.	.	.
*Xped	*	*	*	*
12C#J)	.	.	.	.
.	.	16cc#Jk	.	.
*ped	*	*	*	*
(>12BBL	.	8dd#XL	.	.
12E#X	.	.	.	.
.	.	8ee#X	.	.
12c#	.	.	.	.
12G#X	.	8ff#	.	.
12E#	.	.	.	.
.	.	8gg#XJ	.	.
*Xped	*	*	*	*
12BBJ)	.	.	.	[
=54	=54	=54	=54	=54
*ped	*	*	*	*
(>12AAL	.	8aa)	.	.
12F#	.	.	.	>
*	*	*8va	*	*
.	.	(>[>8cccc#	.	.
12c#J	.	.	.	.
*	*	*Xtuplet	*	*
*	*	*cue	*	*
8f#)	.	12cccc#L<]	.	.
.	.	24bbbL	.	.
*Xped	*	*	*	*
8r	.	24aaa	.	.
.	.	24ggg#X	.	.
.	.	24fff#	.	.
*ped	*	*	*	*
(>12BBL	.	24eee#X	.	.
.	.	24fff#	.	.
12F#	.	24eeen	.	.
.	.	24ddd	.	.
12G#XJ	.	24ccc#	.	.
.	.	24bb	.	.
*	*	*X8va	*	*
!	!	!LO:TX:a:t=loco	!	!
12d)	.	24gg#X	.	.
.	.	24ff#	.	.
12ryy	.	24cc#	.	.
.	.	.	.	.
.	.	24b	.	.
12D	.	24f#	.	.
.	.	.	.	.
.	.	24bJJ	.	]
*	*	*Xcue	*	*
*	*	*tuplet	*	*
=55	=55	=55	=55	=55
*ped	*	*	*	*
(12C#L	.	8.aL	.	<
12F#	.	.	.	.
12c#	.	.	.	.
.	.	16ddJk)	.	.
12A	.	4cc#	.	.
12F#	.	.	.	.
*Xped	*	*	*	*
12c#J)	.	.	.	[
.	.	(>16qqd#X/LL	.	.
.	.	16qqe#X/JJ	.	.
*ped	*	*	*	*
!	!	!	!	!LO:DY:rj
(>12CC#L	.	2e#yt	.	f
12C#	.	.	.	.
12G#X	.	.	.	.
!LO:TX:t=P:problem:złe dopasowanie nut górnej pięciolinii względen nut dolnej pięciolinii	!	!	!	!
12d 12B	.	.	.	.
12c# 12A	.	.	.	.
*Xped	*	*	*	*
12BJ) 12G#	.	.	.	.
.	.	8qqd#/L	.	.
.	.	8qqe#/	.	.
.	.	8qqa/	.	.
.	.	8qqg#X/	.	.
.	.	8qqf#/J	.	.
!!LO:LB:g=original
=56	=56	=56	=56	=56
*ped	*	*	*	*
!LO:TX:t=P:Ped. przed nutą:problem	!	!	!	!
(>12FFF#L	.	4f#)	.	.
12FF#	.	.	.	.
12C#	.	.	.	.
12A	.	(>/2ff#	.	>
12c#	.	.	.	.
12a>J	.	.	.	.
16f#>LL	.	.	.	.
16c#>	.	.	.	.
*Xped	*	*	*	*
16A	.	.	.	.
16b>JJ	.	.	.	.
16f#>LL	.	4ff#	.	.
16c#>	.	.	.	.
16A	.	.	.	.
16a>JJ)	.	.	.	]
=57	=57	=57	=57	=57
16g>LL	.	8gg/L	.	p
16e>	.	.	.	.
16A	.	8ee	.	.
16b>JJ	.	.	.	.
16g>LL	.	8b	.	.
16e>	.	.	.	.
16A	.	8cc#J	.	.
16a>JJ	.	.	.	.
16f#>LL	.	4dd/	.	.
16d>	.	.	.	.
16A	.	.	.	.
16b>JJ	.	.	.	.
16g>LL	.	4ee/	.	.
16c#>	.	.	.	.
16A	.	.	.	.
16a>JJ	.	.	.	.
=58	=58	=58	=58	=58
16f#>LL	.	4ff#/	.	.
16d>	.	.	.	.
16A	.	.	.	.
16a>JJ	.	.	.	.
16f#>LL	.	8.bb/L	.	.
16d#>X	.	.	.	.
16A	.	.	.	.
16a>JJ	.	16aaJk	.	.
*	*	*Xtuplet	*	*
16g>LL	.	12bb/L	.	.
16e>	.	.	.	.
.	.	12.aa	.	.
16A	.	.	.	.
16b>JJ	.	.	.	.
.	.	24ggJk	.	.
16g>LL	.	12gg/L	.	.
16c#>	.	.	.	.
.	.	12.ff#	.	.
16A	.	.	.	.
16a>JJ	.	.	.	.
.	.	24ee#XJk	.	.
=59	=59	=59	=59	=59
16f#>LL	.	8ff#/L	.	.
16d>	.	.	.	.
16A	.	8dd	.	.
16b>JJ	.	.	.	.
16g>LL	.	8b	.	.
16e>	.	.	.	.
16A	.	8cc#J	.	.
16a>JJ	.	.	.	.
16f#>LL	.	8dd/L	.	.
16d>	.	.	.	.
16A	.	8dd#XJ)	.	.
16b>JJ	.	.	.	.
16g>LL	.	16ree	.	.
16c#>	.	(>8ee/L	.	.
16A	.	.	.	.
16a>JJ	.	16ee#XJk	.	.
!!LO:LB:g=original
=60	=60	=60	=60	=60
16f#>LL	.	8ff#/L	.	.
16d>	.	.	.	.
16A	.	8gg	.	.
16a>JJ	.	.	.	.
*	*	*tuplet	*	*
!	!	!LO:TUP:b	!	!
!	!	!LO:TX:a:t=P:w źródle brak klamry kwadratowej:problem	!	!
16fn>LL	.	12gg#X	.	.
16d>	.	.	.	<
.	.	12ccc#	.	.
16A	.	.	.	.
.	.	12bbJ	.	.
16a>JJ	.	.	.	.
16e>LL	.	2aa/)	.	.
16d>	.	.	.	.
16A	.	.	.	.
16a>JJ	.	.	.	.
16e>LL	.	.	.	.
16c#>	.	.	.	.
16G	.	.	.	.
16a>JJ	.	.	.	.
=61	=61	=61	=61	=61
*	*	*^	*	*
*ped	*	*	*	*	*
(>16F#LL	.	2aa/	(>4ddd 4dd	.	[[
16A	.	.	.	.	.
16d	.	.	.	.	.
16AJ	.	.	.	.	.
8aJ)	.	.	8.ccc#L 8.cc#	.	.
*Xped	*	*	*	*	*
8rE	.	.	.	.	.
.	.	.	16bbJk 16b	.	.
*ped	*	*	*	*	*
(>16ELL	.	2ryy	8ccc#L 8aa 8gg 8cc#	.	.
16A	.	.	.	.	.
16c#	.	.	8bb 8b	.	.
16AJ	.	.	.	.	.
.	.	.	8qbb/ 8qb/	.	.
8aJ)	.	.	8aa 8a	.	.
*Xped	*	*	*	*	*
8r	.	.	8gg#XJ 8g#X	.	.
*	*	*v	*v	*	*
=62	=62	=62	=62	=62
*ped	*	*	*	*
(>16DLL	.	8.bbL 8.ff# 8.dd 8.b	.	.
16A	.	.	.	.
16d	.	.	.	.
16AJ	.	16aaJk 16a	.	.
*Xped	*	*	*	*
!	!	!LO:TUP:a	!	!
8aJ)	.	12aaL 12a	.	.
.	.	12gg 12g	.	.
8r	.	.	.	.
.	.	12ff#J 12f#	.	.
*clefG2	*	*	*	*
(<16GLL	.	8.ff#L 8.cc# 8.b-X 8.f#	.	<
16B-X	.	.	.	.
16c#X	.	.	.	.
16B-J	.	16eek 16e	.	.
8b-XJ)	.	8.ff# 8.cc# 8.f#	.	.
.	.	.	.	.
8r	.	.	.	.
.	.	16ggJk 16g	.	[[
*clefF4	*	*	*	*
=63	=63	=63	=63	=63
.	.	8qdd/	.	f
*ped	*	*	*	*
(>16FF#LL	.	16ddLL	.	.
16D	.	16ddd 16aa	.	.
16A	.	16r)	.	.
16AAJ	.	(>16ccc#JJ 16cc#	.	.
!	!	!LO:TUP:a	!	!
!	!	!LO:TX:a:t=P:w źródle brak klamry kwadratowej:problem	!	!
8aJ) 8d 8A	.	24ccc#LL 24cc#	.	.
.	.	24ff# 24dd	.	.
*Xped	*	*	*	*
.	.	24bb 24b)	.	.
*ped	*	*	*	*
8r	.	16ree	.	.
.	.	(>16aaJJ 16a	.	.
(>16EE\LL	.	16cc#LL	.	.
16AA	.	16ccc# 16aa 16gg)	.	.
16A	.	16r	.	.
16AAJ	.	(>16bbJJ 16b	.	.
!	!	!LO:TUP:a	!	!
!	!	!LO:TX:a:t=P:w źródle brak klamry kwadratowej:problem	!	!
8gJ) 8c# 8A	.	24bbLL 24b	.	.
*Xped	*	*	*	*
.	.	24gg 24cc#	.	.
.	.	24aa 24a)	.	.
8r	.	16ree	.	.
.	.	&(>16ggJJ 16g	.	.
!!LO:LB:g=original
=64	=64	=64	=64	=64
*	*	*^	*	*
*ped	*	*	*	*	*
(>16DD\LL	.	4b	16bLL	.	.
16AA	.	.	16bb 16ff# 16dd&)	.	.
16A	.	.	16rcc	.	.
16AAJ	.	.	(>16aaJJ 16a	.	.
!	!	!	!LO:TUP:a	!	!
!	!	!	!LO:TX:a:t=P:w źródle brak klamry kwadratowej:problem	!	!
8dJ) 8A 8F#	.	2.rbbbyy	24aaLL 24a	.	.
.	.	.	24dd	.	.
*Xped	*	*	*	*	*
.	.	.	24gg 24g)	.	.
8r	.	.	16rcc	.	.
.	.	.	(>16ff#JJ 16f#	.	.
*ped	*	*	*	*	*
(16GGLL	.	.	16ff#LL 16f#	.	.
16C#	.	.	16cc#) 16b-X	.	.
16E	.	.	16r	.	.
*Xped	*	*	*	*	*
16GJJ	.	.	(>16eeJJ 16e	.	.
*clefG2	*	*	*	*	*
16B-XLL	.	.	16ff#LL 16f#	.	.
16c#	.	.	16cc#) 16b-	.	.
16e	.	.	16r	.	.
16b-yJJ	.	.	(16ggJJ 16g	.	.
*	*	*v	*v	*	*
=65	=65	=65	=65	=65
8e-X) 8cn 8F#	.	8aa 8dd#X 8ccn 8a)	.	.
8r	.	8r	.	.
!LO:CL:ed	!	!	!	!
*clefF4	*	*	*	*
!	!	!	!	!LO:HP:b=2
(>4F#	.	(>2a^> 2d#X 2cn	.	>
16E#XLL	.	.	.	.
16F#	.	.	.	.
16A	.	.	.	.
16GJJ	.	.	.	.
16D#XLL	.	4a 4e 4c	.	.
16E#	.	.	.	.
16G	.	.	.	.
16F#JJ)	.	.	.	]
=66	=66	=66	=66	=66
*	*	*^	*	*
*ped	*	*	*	*	*
!	!	!LO:TX:a:i:t=leggiero	!	!	!
4D#X'< 4DD#X'	.	16B/LL)	4rfffyy	.	.
.	.	16f#	.	.	.
.	.	16a	.	.	.
.	.	16bJJ	.	.	.
4a' 4f#' 4B'	.	8ryy	16ccc#LL	.	.
.	.	.	16bb	.	.
*Xped	*	*	*	*	*
!	!	!LO:S:s=1:note:problem:note-level slur	!	!	!
.	.	(>8fff#	16aa#X	.	.
.	.	.	16aanJJ	.	.
*ped	*	*	*	*	*
4E' 4EE'	.	8fff#L	16gg#XLL	.	.
.	.	.	16aa	.	.
.	.	8eeeJ)	16bb	.	.
.	.	.	16ddnJJ	.	.
4g#X' 4e' 4B'	.	8rddd	16gg#LL	.	.
.	.	.	16ff#	.	.
.	.	(>8bb	16ee	.	.
*Xped	*	*	*	*	*
.	.	.	16ddJJ	.	.
=67	=67	=67	=67	=67	=67
*ped	*	*	*	*	*
.	.	.	.	.	.
4AA' 4AAA'	.	8bbnL	16b#XLL	.	.
.	.	.	16cc#	.	.
.	.	8aaJ)	16g	.	.
.	.	.	16eeJJ	.	.
4g' 4c#' 4A'	.	8rfff	16bbnyLL	.	.
*Xped	*	*	*	*	*
.	.	.	16aa	.	.
.	.	(8eee	16gg#X	.	.
.	.	.	.	.	.
.	.	.	16ggnJJ	.	.
*ped	*	*	*	*	*
4D' 4DD'	.	8eeeL	16ff#LL	.	.
.	.	.	16gg	.	.
.	.	8dddJ)	16aa	.	.
.	.	.	16ccnJJ	.	.
4f#' 4cn' 4A'	.	8rccc	16ff#LL	.	.
.	.	.	16ee	.	.
*Xped	*	*	*	*	*
.	.	8ff#	16dd	.	.
.	.	.	16ccJJ	.	.
!!LO:PB:g=original
=68	=68	=68	=68	=68	=68
*^	*	*	*	*	*
*	*^	*	*	*	*	*
*ped	*	*	*	*	*	*	*
8rByy	(>8GGL	4ryy	.	8.ff#L	16a#XLL	.	.
.	.	.	.	.	16b	.	.
!	!	!	!	!	!LO:TX:a:t=P:w źródle łuk jest nad belką:problem	!	!
[>4.G	8G	.	.	.	(>16dd#X	.	.
.	.	.	.	16eeJk	16eeJJ	.	.
.	8B	N[>4B/	.	16ccc#\LL	4ryy	.	.
.	.	.	.	16bb	.	.	.
.	8d#XJ	.	.	16gg	.	.	.
*Xped	*	*	*	*	*	*	*
.	.	.	.	16ff#JJ	.	.	.
4e 4BN] 4G])	2rgyy	2ryy	.	16eeLL	2rgggyy	.	.
.	.	.	.	16ddn	.	.	.
.	.	.	.	16b	.	.	.
.	.	.	.	16gJJ	.	.	.
4r	.	.	.	16eLL	.	.	.
.	.	.	.	16d	.	.	.
.	.	.	.	16B	.	.	.
.	.	.	.	16ddJJ	.	.	.
*	*v	*v	*	*	*	*	*
*v	*v	*	*	*	*	*
*	*	*v	*v	*	*
=69	=69	=69	=69	=69
!LO:TX:t=P:łuk pionowy od 4GG do 4B:problem	!	!	!	!
!	!	!LO:TX:a:t=P:łuk pionowy od 4B do 4e:problem	!	!
!	!	!LO:TX:a:i:t=tenuto	!	!
4GG\	.	4e 4B	.	.
4FF#\	.	4f# 4d#X 4B 4A	.	.
4EE\	.	4g 4e 4G<	.	.
!	!	!LO:N:n=2:vis=8	!	!
!	!	!LO:N:n=3:vis=8	!	!
!	!	!LO:TX:a:t=P:łuk pionowy od 8.G< do 8.f#.:problem	!	!
4AA\	.	8.f#L 8.c#< 8.G<	.	.
.	.	16eJk)	.	.
=70	=70	=70	=70	=70
*	*	*^	*	*
*ped	*	*	*	*	*
4AA#X'\ 4AAA#X'\	.	16F#</LL	4reeeyy	.	.
.	.	16c#	.	.	.
.	.	16e	.	.	.
.	.	16f#JJ	.	.	.
4e' 4c#' 4F#'	.	8ryy	16gg#XLL	.	.
.	.	.	16ff#	.	.
*Xped	*	*	*	*	*
.	.	(>8ccc#	16ee#X	.	.
.	.	.	16eenJJ	.	.
*ped	*	*	*	*	*
4BB' 4BBB'	.	8ccc#L	16dd#XLL	.	.
.	.	.	16ee	.	.
.	.	8bbJ)	16ff#	.	.
.	.	.	16aJJ	.	.
4d#X' 4B'	.	8rbb	16dd#LL	.	.
.	.	.	16cc#	.	.
.	.	(>8ff#	16b	.	.
*Xped	*	*	*	*	*
.	.	.	16aJJ	.	.
=71	=71	=71	=71	=71	=71
*ped	*	*	*	*	*
4E' 4EE'	.	8ff#XL	16f##XLL	.	.
.	.	.	16g#X	.	.
.	.	8eeJ)	16dn	.	.
.	.	.	16bJJ	.	.
4d' 4G#X' 4E'	.	8rccc	16ff#LL	.	.
.	.	.	16ee	.	.
*Xped	*	*	*	*	*
.	.	(>8bb	16dd#X	.	.
*ped	*	*	*	*	*
.	.	.	16ddnJJ	.	.
4AA' 4AAA'	.	8bbL	16cc#LL	.	.
.	.	.	16dd	.	.
.	.	8aaJ)	16ee	.	.
.	.	.	16gnJJ	.	.
4c# 4A	.	8rbb	16cc#LL	.	.
.	.	.	16b	.	.
.	.	8ee	16a	.	.
*Xped	*	*	*	*	*
.	.	.	16gJJ	.	.
!!LO:LB:g=original
=72	=72	=72	=72	=72	=72
*^	*	*	*	*	*
8cnL	4cn 4D	.	(>16eeLL	N[4f#	.	.
.	.	.	16ee-X	.	.	.
16BL	.	.	16dd	.	.	.
16B-XJJ	.	.	16cc#XJJ	.	.	.
16A/LL	4rBByy	.	16ccnLL 16f#N]	4ryy	.	.
16G#X	.	.	16bn 16fn	.	.	.
16c	.	.	16a	.	.	.
16BnJJ	.	.	16g#XJJ)	.	.	.
16dLL	4d 4E	.	(>16ffnLL	4g#	.	.
16c#X	.	.	16ee-	.	.	.
16cn	.	.	16dd#X	.	.	.
16BJJ	.	.	16ddnJJ	.	.	.
16A#X/LL	4rBByy	.	16cc#XLL	4gn	.	.
16d	.	.	16b	.	.	.
16c#X	.	.	16a#X	.	.	.
[>16eJJ	.	.	16cc#JJ	.	.	.
=73	=73	=73	=73	=73	=73	=73
16eLL]	4e 4F#	.	16gg/LL	4a#	.	.
16d#X	.	.	16ff#	.	.	.
16dn	.	.	16ee#X	.	.	.
16c#JJ	.	.	16eenJJ	.	.	.
2.rgyy	4B	.	16dd/LL	4b	.	.
.	.	.	16cc#	.	.	.
.	.	.	16ee	.	.	.
.	.	.	16ddJJ)	.	.	<
.	8b> 8e#X> 8G#X	.	(>12bb/L 12dd/	2ryy	.	.
.	.	.	12aa#X 12cc#	.	.	.
.	4rD	.	.	.	.	.
.	.	.	12bbJ 12dd	.	.	.
.	.	.	12bb#XL 12dd#X	.	.	.
.	.	.	12ccc# 12ee	.	.	.
.	8g#X> 8B>	.	.	.	.	.
.	.	.	12dddnJ 12ee#X	.	.	[[
*	*	*	*v	*v	*	*
*v	*v	*	*	*	*
=74	=74	=74	=74	=74
8a> 8A	.	8ddd 8ff#)	.	.
8ee>L	.	(>8ccc#L> 8gg	.	.
8dd>	.	8bb 8ff#	.	.
8ee>J	.	8ccc#J 8gg	.	.
8dd>L	.	8bbL 8ff#	.	.
8cc#>	.	8ccc# 8ee	.	.
8b>	.	8ddd 8dd	.	.
8cc#>J	.	8aaJ 8ee	.	.
=75	=75	=75	=75	=75
*	*	*^	*	*
*	*	*	*^	*	*
8b>L	.	8ggL 8dd	2ryy	2.ryy	.	.
8a>	.	8aa 8cc#	.	.	.	.
8g>	.	8bb 8b	.	.	.	.
8a>J	.	8ff#J 8cc#	.	.	.	.
!	!	!LO:TX:b:i:t=ritenuto	!	!	!	!
8gL	.	8eeL	4.b	.	.	.
8B	.	8ff# dd# 8a	.	.	.	.
8e	.	8gg	.	4ee\ 4g\	.	.
8AJ	.	8cc#J 8a	8ryy	.	.	.
*	*	*	*v	*v	*	*
*	*	*v	*v	*	*
!!LO:LB:g=original
=76	=76	=76	=76	=76
!	!	!LO:TX:a:B:t=in Tempo.	!	!
N(>16DD\LL	.	4dd 4f#)	.	.
!LO:TX:a:i:t=dolce.	!	!	!	!
16AA	.	.	.	.
16D	.	.	.	.
16AJJ	.	.	.	.
4r	.	16f#LL	.	.
.	.	16g	.	.
*Xped	*	*	*	*
.	.	16a	.	.
.	.	16ddJJN)	.	.
*ped	*	*	*	*
N(<16DLL	.	[>4b/	.	.
16A	.	.	.	.
16d	.	.	.	.
16eJJ	.	.	.	.
16f#>LL	.	8bL]	.	.
16g>	.	.	.	.
*Xped	*	*	*	*
16a>	.	16aJk	.	.
16ff#>JJ	.	16ryy	.	.
=77	=77	=77	=77	=77
*	*	*^	*	*
*ped	*	*	*	*	*
N(>16BBLL	.	[>4ee/N)	4ryy	.	.
16F#	.	.	.	.	.
16B	.	.	.	.	.
16c#JJ	.	.	.	.	.
4r	.	8.eeL]	16dLL	.	.
.	.	.	16e	.	.
*Xped	*	*	*	*	*
.	.	.	16f#	.	.
.	.	16ddJkN)	16ddJJ	.	.
*ped	*	*	*	*	*
(>16EE\LL	.	[>/4cc# 4g#	4rdyy	.	.
16BB	.	.	.	.	.
16E	.	.	.	.	.
16BJJ	.	.	.	.	.
16d>LL	.	8cc#L]	4ryy	.	.
16e>J	.	.	.	.	.
!	!	!LO:TUP:b	!	!	!
8g>J)	.	24cc#L	.	.	.
*Xped	*	*	*	*	*
.	.	24dd	.	.	.
.	.	24bJJ	.	.	.
=78	=78	=78	=78	=78	=78
*	*	*	*^	*	*
*	*	*	*	*^	*	*
*ped	*	*	*	*	*	*	*
N(<16AALL	.	[>4b [>4gn	4ryy	2.ryy	2.ryy	.	.
16E	.	.	.	.	.	.	.
16A	.	.	.	.	.	.	.
16BJJ	.	.	.	.	.	.	.
4r	.	8bL]	16gLL] 16c#	.	.	.	.
!	!	!	!LO:N:vis=16.	!	!	!	!
.	.	.	N[<16g	.	.	.	.
*Xped	*	*	*	*	*	*	*
.	.	[>8aJ	16a	.	.	.	.
.	.	.	16ddJJ	.	.	.	.
*ped	*	*	*	*	*	*	*
N(<16AALL	.	[>4cc# 4a_< 4gN]N)	4ryy	.	.	.	.
16E	.	.	.	.	.	.	.
16A	.	.	.	.	.	.	.
16dJJ	.	.	.	.	.	.	.
!	!	!	!	!	!LO:N:vis=4	!	!
4e	.	8cc#L] 8a]	16gLL	[<4g/	16g/	.	.
.	.	.	16a	.	[[<8a/	.	.
.	.	8ddJ	16dd	.	.	.	.
*Xped	*	*	*	*	*	*	*
.	.	.	16ff#JJ	.	16ryy	.	.
*	*	*	*	*v	*v	*	*
=79	=79	=79	=79	=79	=79	=79
*^	*	*	*	*	*	*
*	*	*	*	*	*	*^	*
*ped	*	*	*	*	*	*	*	*
!	!LO:TX:t=P:cross-staff slur:problem	!	!	!	!	!	!	!
8rByy	N(>16AALL	.	[>4ee/ [>4cc#/ [>4a/]] 4g/]N)	4ryy	4rGyy	.	.	.
.	16E	.	.	.	.	.	.	.
8A	[[>16A	.	.	.	.	.	.	.
.	[>16eJJ	.	.	.	.	.	.	.
!	!LO:N:n=1:vis=4	!	!	!	!	!	!	!
16ryy	8.eL] 8.A]]	.	(>16eeLL] 16cc#] 16a]N)	16ryy	4g\	.	.	.
8ryy	.	.	16cc#	8cc#	.	.	.	.
.	.	.	16bb	.	.	.	.	.
16ryy	N(>[>16AJk	.	32raa	16rgyy	.	.	.	.
.	.	.	32bbJJk)	.	.	.	.	.
*	*	*	*	*	*Xtuplet	*	*	*
2ryy	2A]	.	(>12bbL	2cc#/N)	12g\L	.	.	.
*Xped	*	*	*	*	*	*	*	*
.	.	.	12.aa	.	12.f#\	.	.	.
.	.	.	24ggJk	.	24e\Jk	.	.	.
.	.	.	12ggL	.	12b\L	.	1	.
.	.	.	12ff#	.	12a\J	.	1	.
.	.	.	24ree	.	12re	.	.	.
.	.	.	24ee#XJk 24g#X)	.	.	.	.	.
*	*	*	*	*	*	*v	*v	*
*v	*v	*	*	*	*	*	*
*	*	*v	*v	*	*	*
!!LO:LB:g=original
=80	=80	=80	=80	=80	=80
*ped	*	*tuplet	*	*	*
!	!	!LO:TX:a:t=P:problem:w źródle brak klamry kwadratowej	!	!	!
N(>16DLL	.	12ggL 12b	4dd	.	.
16A	.	.	.	.	.
.	.	12ff#J 12a	.	.	.
16d	.	.	.	.	.
.	.	12r	.	.	.
16eJJ	.	.	.	.	.
8r	.	16f#LL	2ryy	.	.
*Xped	*	*	*	*	*
.	.	16g	.	.	.
16r	.	16a	.	.	.
*ped	*	*	*	*	*
16AA'	.	16ddJJN)	.	.	.
16AALL	.	[>4b/	.	.	.
16A	.	.	.	.	.
16d	.	.	.	.	.
16eJJ	.	.	.	.	.
4r	.	8bL]	16f#LL	.	.
.	.	.	16g	.	.
.	.	16aJk	16a	.	.
*Xped	*	*	*	*	*
.	.	16reeeyy	16ff#JJ	.	.
=81	=81	=81	=81	=81	=81
*^	*	*	*	*	*
*	*	*	*	*^	*	*
*ped	*	*	*	*	*	*	*
4rAyy	N(>16BBLL	.	[>/4ee	4ryy	4ryy	.	.
.	16F#	.	.	.	.	.	.
.	16B	.	.	.	.	.	.
.	16c#JJ	.	.	.	.	.	.
4ryy	8r	.	8.eeL]	N[<16dLL	16ryy	.	.
*Xped	*	*	*	*	*	*	*
.	.	.	.	16eJ	8.e/	.	.
.	16rD	.	.	8f#J	.	.	.
*ped	*	*	*	*	*	*	*
.	16EE'/	.	16ddJkN)	.	.	.	.
8rByy	N(<16EELL	.	[>4cc# [>4g#X 4dN]	4ryy	4ryy	.	.
.	16BB	.	.	.	.	.	.
4E/	16E	.	.	.	.	.	.
.	16BJJ	.	.	.	.	.	.
.	4rD	.	8cc#L] 8g#]	16dLL	16ryy	.	.
.	.	.	.	16eJ	8.e/	.	.
!	!	!	!LO:TX:a:t=P:problem:łuk pionowy od 16cc# do 8g#	!	!	!	!
16ryy	.	.	16cc#L)	8g#J	.	.	.
.	.	.	32qqdd/L	.	.	.	.
.	.	.	32qqcc#/	.	.	.	.
.	.	.	32qqb/	.	.	.	.
.	.	.	32qqcc#/	.	.	.	.
.	.	.	32qqee/	.	.	.	.
*Xped	*	*	*	*	*	*	*
.	.	.	32qqdd/J	.	.	.	.
.	.	.	.	.	.	.	.
16ryy	.	.	16bJJ 16dN)	.	.	.	.
*v	*v	*	*	*	*	*	*
=82	=82	=82	=82	=82	=82	=82
*	*	*	*	*^	*	*
*ped	*	*	*	*	*	*	*
N(<16AALL	.	[>4b/ [>4gn 4d	4ryy	4rddddyy	2.ryy	.	.
16E	.	.	.	.	.	.	.
16A	.	.	.	.	.	.	.
*Xped	*	*	*	*	*	*	*
16BJJ	.	.	.	.	.	.	.
4r	.	8b] 16gL]	16c#LL	16rCyy	.	.	.
.	.	.	16g	N[<8.g/	.	.	<
.	.	8aJ	N[>16a	.	.	.	.
.	.	.	16ddJJ	.	.	.	.
*ped	*	*	*	*	*	*	*
N(<16AALL	.	[>4cc#/ [>4aN] 4gN]N)	4ryy	4rbbbyy	.	.	.
16E	.	.	.	.	.	.	.
16A	.	.	.	.	.	.	.
*Xped	*	*	*	*	*	*	*
16dJJ	.	.	.	.	.	.	.
4e	.	8cc#] 8aL]	16gLL	16rEyy	N[<4g/	.	.
.	.	.	16a	N[<8a/	.	.	.
.	.	8ddJ	16dd	.	.	.	.
.	.	.	16ff#JJN)	16ryy	.	.	.
.	.	.	.	.	.	.	.
*	*	*	*	*v	*v	*	*
!!LO:LB:g=original
=83	=83	=83	=83	=83	=83	=83
*^	*	*	*	*	*	*
!	!	!	!LO:TX:a:t=P:problem:ligatura przy 4a zakończona nad nutą	!	!	!	!
!	!	!	!LO:TX:b:t=P:łuk nakłada się na nuty:problem	!	!	!	!
N(>\16AALL	8ryy	.	4ee/ 4cc#/ 4a/N] 4g/N]	4ryy	4ryy	.	.
16E\	.	.	.	.	.	.	.
16A	N[>/8A	.	.	.	.	.	.
N[>16eJJ	.	.	.	.	.	.	.
8eN] 8AN]	16rgyy	.	16gLL	4ryy	16ryy	.	.
!	!	!	!	!	!LO:N:vis=4	!	!
.	4ryy	.	16cc#	.	8.cc#\	.	.
16r	.	.	16aa	.	.	.	.
*ped	*	*	*	*	*	*	*
(>16AAA	.	.	(>16bb-XJJ	.	.	.	.
*	*	*	*	*Xtuplet	*	*	*
16AALL	.	.	12aa#X/L)	12ryy	N[>4gg\	.	.
16E	4ryy	.	.	.	.	.	.
.	.	.	12cc#	6cc#	.	.	.
16A	.	.	.	.	.	.	.
.	.	.	12bbnJ	.	.	.	.
16eJJ	.	.	.	.	.	.	.
!LO:TX:t=P:here should be one clef:problem	!	!	!	!	!	!	!
*clefG2	*	*	*	*	*	*	*
16aLL	.	.	16bbLL	8ggLN]	4ryy	.	.
16eeJJ)	8.ryy	.	16ccc#X	.	.	.	.
8r	.	.	16fff#	16aanL	.	.	.
.	.	.	16eeeJJ	16ggJJ	.	.	[
*	*	*	*	*v	*v	*	*
*v	*v	*	*	*	*	*
*clefF4	*	*	*	*	*
=84	=84	=84	=84	=84	=84
(>8DDL	.	4dddN)	2ff#	.	.
!	!	!	!	!	!LO:HP:b=2
16AAL	.	.	.	.	.
16DJJ	.	.	.	.	.
16ALL	.	&(>4ddd	.	.	.
16cn	.	.	.	.	.
16f#>	.	.	.	.	.
16a>JJ	.	.	.	.	.
2ccn>)	.	4ff#	2ryy	.	.
.	.	8.bbL	.	.	.
.	.	16aaJk	.	.	.
=85	=85	=85	=85	=85	=85
*	*	*	*^	*	*
(>8DDL	.	2gg#X	2rgggyy	4ffn\ 4b	.	.
16BBL	.	.	.	.	.	.
16DJJ	.	.	.	.	.	.
16FnLL	.	.	.	8.ee\L	.	.
16G#X	.	.	.	.	.	.
16B	.	.	.	.	.	.
16fnJJ)	.	.	.	16dd\Jk	.	.
!	!	!	!	!LO:TX:t=P:łuk pionowy od 4e do 4b-:problem	!	!
4e	.	4ggn	2cc#/	4b-X\	.	.
8.a>L	.	8.ff#XL	.	4ryy	.	.
16g>Jk	.	16eeJk	.	.	.	.
=86	=86	=86	=86	=86	=86	=86
(>8DDL	.	8ddL	1f#	2.rAyy	.	.
16AAL	.	8cc#	.	.	.	.
16DJJ	.	.	.	.	.	.
16ALL	.	8ccn	.	.	.	.
16cn	.	.	.	.	.	.
16c#X	.	8bJ	.	.	.	.
16dJJ	.	.	.	.	.	.
16e-X>LL<	.	4a	.	.	.	.
16cn	.	.	.	.	.	.
16A	.	.	.	.	.	.
16F#JJ	.	.	.	.	.	.
16E-XLL	.	8.bL	.	4cn\	.	.
16D	.	.	.	.	.	.
16AA	.	.	.	.	.	.
16EE-XJJ)	.	16aJk	.	.	.	.
!!LO:LB:g=original
=87	=87	=87	=87	=87	=87	=87
(>8DDL	.	8a/	4fn\	2B\	.	.
16BBL	.	4.g#X/	.	.	.	.
16DJJ	.	.	.	.	.	.
.	.	.	.	.	.	.
16D#XLL	.	.	8.e\L	.	.	.
16E	.	.	.	.	.	.
16Fn	.	.	.	.	.	.
16BJJ)	.	.	16dn\Jk	.	.	.
2B-X	.	4gn/	2c#\	2raayy	.	.
.	.	8.f#X/L	.	.	.	.
.	.	16eJk	.	.	.	.
*	*	*v	*v	*v	*	*
=88	=88	=88	=88	=88
*^	*	*	*	*
2A/	2D\	.	4f#&) 4d	.	.
!	!	!	!	!	!LO:HP:a
.	.	.	(>2f#	.	>
2B	(>8GGL	.	.	.	.
.	16FF#L	.	.	.	.
.	16GGJJ	.	.	.	.
.	16AALL	.	8.eL	.	.
.	16GG	.	.	.	.
.	16D	.	.	.	.
.	16GGJJ	.	16dJk	.	]
=89	=89	=89	=89	=89	=89
*	*	*	*^	*	*
!	!	!	!	!	!	!LO:HP:a
2A	2DD)	.	4f#)	2.rcyy	.	>
.	.	.	(>2f#	.	.	.
2B	(>8GGGL	.	.	.	.	.
.	16FFF#L	.	.	.	.	.
.	16GGGJJ	.	.	.	.	.
.	16AAALL	.	4e	8.rAyy	.	.
.	16GGG	.	.	.	.	.
.	16DD	.	.	.	.	.
.	16GGGJJ	.	.	16d	.	]
=90	=90	=90	=90	=90	=90	=90
!!LO:TX:a:B:t=1.
*>A1	*>A1	*	*>A1	*>A1	*	*>A1
!	!	!	!LO:TX:a:t=P:note position:w źródle 2d przed 1e:problem	!	!	!
[2G	2AAA)	.	[1e	2d	.	<
!	!LO:TX:t=P:tryl powinien wyświetlać się nad 2AAA#:problem	!	!	!	!	!
4..G]	2AAA#Xt>	.	.	[2c#	.	.
16qqGGG##X\LL	.	.	.	.	.	.
16qqAAA#/JJ	.	.	.	.	.	.
16F#	.	.	.	.	.	.
*v	*v	*	*	*	*	*
*	*	*v	*v	*	*
=91	=91	=91	=91	=91
2AA#X\	.	2e]) 2c#] 2F#<	.	[
2r	.	4r	.	.
.	.	16ggLL	.	>
.	.	16ff#	.	.
.	.	16dd	.	.
.	.	16bJJ	.	]
=92:|!	=92:|!	=92:|!	=92:|!	=92:|!
!!LO:TX:a:B:t=2.
*>A2	*	*>A2	*	*>A2
*^	*	*^	*	*
!	!	!	!	!LO:TX:a:t=P:note position:w źródle 2d przed 1e:problem	!	!
2.G	2AAA	.	1e	&(>2d	.	.
.	2AAA#Xt>	.	.	(<2c#	.	.
4F#	.	.	.	.	.	.
16qqGGG##X/LL	.	.	.	.	.	.
16qqAAA#/JJ	.	.	.	.	.	.
=93	=93	=93	=93	=93	=93	=93
2.F#	2BBB	.	2d	4c#)	.	.
.	.	.	.	2B	.	.
.	2FF#	.	2c#	.	.	.
4C#	.	.	.	4A	.	.
*	*	*	*v	*v	*	*
!!LO:PB:g=original
=94	=94	=94	=94	=94	=94
*>B	*>B	*	*>B	*	*>B
*	*^	*	*	*	*
(>4C#	2FF#\	1G#X	.	2c#	.	.
!	!	!	!	!	!	!LO:HP:b=2
.	.	.	.	.	.	>
[<4C#	.	.	.	.	.	.
8C#L]	2EE#X\	.	.	[<2c#	.	]
16BB#XL	.	.	.	.	.	.
16C#JJ	.	.	.	.	.	.
16DLL	.	.	.	.	.	.
16C#	.	.	.	.	.	.
16G#	.	.	.	.	.	.
16C#JJ	.	.	.	.	.	.
=95	=95	=95	=95	=95	=95	=95
*	*	*	*	*^	*	*
4F#)	1B	8GG#X\L	.	2c#]	2.ryy	.	.
.	.	8CC#\J	.	.	.	.	.
8.E#XL	.	4rFF	.	.	.	.	.
16AJ	.	.	.	.	.	.	.
4G#	.	4rFF	.	4e#X	.	.	.
\16ALL	.	4ryy	.	8.f#L	4dL	.	.
16G#	.	.	.	.	.	.	.
16F#	.	.	.	.	.	.	.
16DJJ	.	.	.	16aJ	.	.	.
*	*v	*v	*	*	*	*	*
=96	=96	=96	=96	=96	=96	=96
1B	2EE#X	.	2a	4d	.	.
.	.	.	.	[<4d	.	>
.	4E#X	.	2g#X&)	8dL]	.	]
.	.	.	.	16c#L	.	.
.	.	.	.	16dJJ	.	.
!	!	!	!	!	!	!LO:HP:b=2
.	(>[>4E#	.	.	16eLL	.	>
.	.	.	.	16d	.	.
.	.	.	.	16b	.	.
.	.	.	.	16dJJ	.	.
*v	*v	*	*	*	*	*
=97	=97	=97	=97	=97	=97
*	*	*	*^	*	*
8E#XL]	.	(>4b	2g#X	4d\	.	]
16D##XL	.	.	.	.	.	.
16E#JJ	.	.	.	.	.	.
!	!	!	!	!	!	!LO:HP:a
16F#LL	.	[>4b	.	2.rAyy	.	>
16E#	.	.	.	.	.	.
16d##y	.	.	.	.	.	.
16B#XJJ	.	.	.	.	.	.
4c#	.	8bL]	[<2gn [<2eny	.	.	]
.	.	16a#XL	.	.	.	.
.	.	16bnJJ	.	.	.	.
4Bn	.	16ddLL	.	.	.	.
.	.	16cc#	.	.	.	.
.	.	16ee	.	.	.	.
.	.	16ddJJ	.	.	.	.
*	*	*v	*v	*v	*	*
!!LO:LB:g=original
=98	=98	=98	=98	=98
!LO:TX:t=P:rendering:łuk nakłada się na nuty:problem	!	!	!	!
16A#XLL	.	16cc#LL 16g] (<16e]	.	.
16c#	.	16eeJJ) 16a#X)	.	.
16E	.	8r	.	.
16F#JJ	.	.	.	.
16AnLL	.	4r	.	.
16G	.	.	.	.
16E	.	.	.	.
16C#JJ	.	.	.	.
16GLL	.	4r	.	.
16A#X	.	.	.	.
16BB#X	.	.	.	.
16C#JJ	.	.	.	.
!	!	!	!	!LO:DY:rj
16F#\LL	.	(>16gLL	.	.
16E\	.	16f#	.	.
16C#\	.	16c#	.	.
16AA#\JJ	.	16A#y<JJ	.	.
=99	=99	=99	=99	=99
4.FF#)	.	4.F#<)	.	.
!	!	!	!	!LO:DY:rj
8EE	.	8A#X< 8F#< 8C#<	.	.
!	!	!	!	!LO:HP:a
8DDL	.	8B<L 8F#< 8BB<	.	<
8AA#X 8AAA#X	.	8c#< 8F#< 8C#<	.	.
8BB 8BBB	.	8d< 8B< 8F#< 8D<	.	.
8GGJ	.	8eJ 8B< 8E<	.	[
=100	=100	=100	=100	=100
*^	*	*	*	*
*	*^	*	*	*	*
!	!	!	!	!LO:S:s=1:note:problem:note-level slur	!	!
(>4B	4D\ 4DD	2F#/	.	(>/2.f#	.	.
8.c#/L	8.C#\L 8.CC#	.	.	.	.	.
8qe</	.	.	.	.	.	.
16d</J	16BB\Jk 16BBB	.	.	.	.	.
!	!	!	!	!LO:S:s=1:note:problem:note-level slur	!	!
2ryy	4AA\ 4AAA	4F#)	.	.	.	.
.	4EE#X\ 4EEE#X	4ryy	.	4g#X 4c# 4G#X<	.	[
*	*v	*v	*	*	*	*
=101	=101	=101	=101	=101	=101
1ryy	4FF# 4FFF#\	.	4a 4c# 4A<)	.	.
.	4rEE	.	(>[>4c#^> [<4C#<	.	<
!LO:TX:t=P:in the print half note (with appoggiaturas below the 8C#) is incorrectly below the 16BB#:problem	!	!	!	!	!
.	2EEnT<\	.	8c#L] 8C#<]	.	.
.	.	.	16B#XL 16BB#X<	.	.
.	.	.	16c#JJ 16C#<	.	.
.	.	.	16d#XLL 16D#X<	.	.
.	.	.	16c# 16C#<	.	.
.	.	.	16g#X 16G#X<	.	.
.	.	.	32re	.	[
!	!	!	!LO:S:s=1:note:problem:note-level slur	!	!
.	.	.	32c#JJk 32C#<	.	.
!!LO:LB:g=original
=102	=102	=102	=102	=102	=102
!	!	!	!LO:TX:t=P:problem:górny łuk kończy się na 8F##, ale problem z dociągnięciem go do tej nuty	!	!
(<4DD#X\	(>8G#XL	.	4c#< 4A#X<)	.	.
.	8F##XJ)	.	.	.	.
16CC##X/LL	4rdyy	.	4r	.	.
16DD#	.	.	.	.	.
16AA#X	.	.	.	.	.
16C##JJ	.	.	.	.	.
16D#y/LL	2reyy	.	2r	.	.
16E	.	.	.	.	.
16C##	.	.	.	.	.
16D#JJ	.	.	.	.	.
16F#y/LL	.	.	.	.	.
16E	.	.	.	.	.
16C#	.	.	.	.	.
16FF##XJJ	.	.	.	.	.
*v	*v	*	*	*	*
=103	=103	=103	=103	=103
*	*	*^	*	*
*	*	*	*^	*	*
4A#X)	.	4r	4rdyy	2rFyy	.	.
!	!	!LO:N:vis=2.	!	!	!	!
2A#	.	(>8.c#L	2.c#	.	.	>
.	.	16g#XJk	.	.	.	.
.	.	4f##X	.	8rA	.	.
.	.	.	.	16c##X\LL	.	.
.	.	.	.	[<16d#X\JJ	.	.
4G#X	.	8.g#L	.	16d#\LL]	.	]
.	.	.	.	16e\	.	.
.	.	.	.	16f##y\	.	.
.	.	16anJk	.	16e\JJ	.	.
=104	=104	=104	=104	=104	=104	=104
[2Gn	.	(>4a#X)	1e	2c#\)	.	.
!	!	!	!	!	!	!LO:HP:a
.	.	2b-X	.	.	.	>
8GL]	.	.	.	2cn\	.	.
16BBnL	.	.	.	.	.	.
16CnJJ	.	.	.	.	.	.
16DLL	.	4an	.	.	.	]
16C	.	.	.	.	.	.
16G	.	.	.	.	.	.
[<16CJJ	.	.	.	.	.	.
*	*	*	*v	*v	*	*
=105	=105	=105	=105	=105	=105
*ped	*	*	*	*	*
!LO:TX:t=P:łuk pionowy od 1B- do 4a:problem	!	!	!	!	!
[<1e> [>1B-X [<1CnX]	.	4a	4yy	.	.
.	.	.	.	.	<
.	.	8.gL	4ryy	.	.
.	.	16ddJk)	.	.	.
*Xped	*	*	*	*	*
.	.	(>4eej	2ccn 2b-X	.	.
.	.	8.ffnL	.	.	.
.	.	16ff#XJk	.	.	[
!!LO:LB:g=original
=106	=106	=106	=106	=106	=106
*	*	*	*	*	*^
!LO:N:vis=4	!	!	!	!	!	!
!	!	!	!LO:TX:b:t=P:rendering:f nakłada się na graficzne decrescendo:problem	!	!	!
8e] 8B-X] 8CnX]	.	2aa	2.ee 2.b-X	.	>	.
(<16BBBnLL	.	.	.	.	.	f
16CCnJJ	.	.	.	.	.	.
16GGLL	.	.	.	.	.	.
16Cn	.	.	.	.	.	.
16E	.	.	.	.	.	.
16GJJ	.	.	.	.	.	.
16cnLL	.	4gg)	.	.	.	.
16d-X	.	.	.	.	.	.
16Bn	.	.	.	.	.	.
16cJJ	.	.	.	.	]	.
4C)	.	(>4gg#X 4ee	16dd-XLL	.	.	.
.	.	.	16ccn	.	.	.
.	.	.	16b-X	.	.	.
.	.	.	16eJJ	.	.	.
*	*	*	*	*	*v	*v
=107	=107	=107	=107	=107	=107
!	!	!LO:S:s=1:note:problem:note-level slur	!	!	!LO:HP:b=2
(>2cn 2Cn	.	8aa-X/L) 8ee/ 8ccn/ 8a-X/	2rcyy	.	>
.	.	16eL	.	.	.
.	.	16fnJJ	.	.	.
.	.	16a-\LL	.	.	.
.	.	16cc	.	.	.
.	.	16ee	.	.	.
.	.	16ffnJJ	.	.	.
4B 4BB	.	4ddd	16ggLL	.	]
.	.	.	16aa-X	.	.
.	.	.	16ee	.	.
.	.	.	16ffJJ	.	.
16B-XLL	.	(>4ddd 4aa- 4dd	4rcyy	.	.
16A-X	.	.	.	.	.
16Fny	.	.	.	.	.
16C-XJJ	.	.	.	.	.
=108	=108	=108	=108	=108	=108
8BB-XL)	.	2ddd 2gg 2ee 2dd	2.rddddyy	.	>
16AAAL	.	.	.	.	.
16BBB-XJJ	.	.	.	.	.
16EELL	.	.	.	.	.
16GG	.	.	.	.	.
16BB-	.	.	.	.	.
16EJJ	.	.	.	.	.
16B-XLL	.	4ccc#) 4gg 4cc#	.	.	]]
16cn	.	.	.	.	.
16A	.	.	.	.	.
16B-JJ	.	.	.	.	.
4BB-	.	(>16cccnLL	4gg 4dd-X	.	.
.	.	16bb-X	.	.	.
.	.	16gg	.	.	.
.	.	16dd-JJ	.	.	.
!!LO:LB:g=original
=109	=109	=109	=109	=109	=109
!	!	!LO:TX:t=P:rendering:łuk nakłada się na nuty:problem	!	!	!LO:HP:b=2
(>2B-X 2BB-X	.	8gg-XL) 8dd-X 8g-X	2rAyy	.	>
.	.	16dnL	.	.	.
.	.	16e-XJJ	.	.	.
.	.	16g-\LL	.	.	.
.	.	16dd-	.	.	.
.	.	16ddn	.	.	.
.	.	16ee-XJJ	.	.	.
4A 4AA)	.	4cccn	16ffnLL	.	]
.	.	.	16gg-	.	.
.	.	.	16dd	.	.
.	.	.	16ee-JJ	.	.
16B-LL	.	(>4ccc\ 4gg-\ 4ccn\	4rcyy	.	.
16A	.	.	.	.	.
16E-X	.	.	.	.	.
16CnJJ	.	.	.	.	.
*	*	*v	*v	*	*
=110	=110	=110	=110	=110
*	*	*	*	*^
16AA-XLL	.	4cccn 4ffn 4dd 4ccn	.	>	.
16GG	.	.	.	.	.
16BB-X	.	.	.	.	.
16AA-JJ	.	.	.	.	.
16GG\LL	.	8bbn) 8gg 8dd 8bn	.	]	.
16FF#	.	.	.	.	.
16FFn	.	8Bn< 8G< 8D<	.	.	.
16GGJJ	.	.	.	.	.
16EE-X\LL	.	8cn<L 8G< 8Cn<	.	<	.
!	!	!LO:TX:a:i:t=sempre	!	!	!
16GG	.	.	.	.	.
16BBBn	.	8d< 8G< 8D<	.	.	.
16GGJJ	.	.	.	.	.
16CCn\LL	.	8e-X 8c< 8G< 8E-X<	.	.	.
16C#	.	.	.	.	.
!	!	!	!	!	!LO:DY:a
16AA-X	.	8fnJ 8c< 8Fn<	.	.	f
16C#JJ	.	.	.	.	.
=111	=111	=111	=111	=111	=111
16EE-X\LL	.	4g 4cn 4G<	.	[[	.
*	*	*	*	*v	*v
16GG	.	.	.	.
16Cn	.	.	.	.
16E-XJJ	.	.	.	.
16D\LL	.	8.aL 8.f#X 8.c 8.A<	.	.
16DD	.	.	.	.
16D	.	.	.	.
16GGJJ	.	16b-XJk 16g 16B-X<	.	.
16FFn\LL	.	4d 4A<	.	.
16Fny	.	.	.	.
16En	.	.	.	.
16DJJ	.	.	.	.
16C#X\LL	.	4e 4A< 4E<	.	.
16BB-X	.	.	.	.
16AA	.	.	.	.
16GGJJ	.	.	.	.
!!LO:PB:g=original
=112	=112	=112	=112	=112
*	*	*^	*	*
16FFn\LL	.	4.fn 4.d 4.A< 4.Fn<	2rBByy	.	.
16EE	.	.	.	.	.
16DD	.	.	.	.	.
16CCnJJ	.	.	.	.	.
16BBB\LL	.	.	.	.	.
16BB	.	.	.	.	.
16C-X	.	8f 8d 8A-X<	.	.	.
16c-XJJ	.	.	.	.	.
8B--\L 8BB--\	.	8g-XL	16d-XLL	.	<
.	.	.	16G-X	.	.
8F# 8FF	.	8a-X	16d-	.	.
.	.	.	16c-XJJ	.	.
8G-X 8GG-X	.	8b--	16B--LL	.	.
.	.	.	16d-	.	.
8F-XJ 8FF-X	.	8b-XJ	16gn	.	.
.	.	.	16B-XJJ	.	[[
=113	=113	=113	=113	=113	=113
*	*	*	*^	*	*
4E-X/ 4EE-X/	.	4cc-X	16g-X\LL	4ryy	.	.
.	.	.	16c-X\	.	.	.
.	.	.	16fn\	.	.	.
.	.	.	16g-\JJ	.	.	.
8.G-X/L 8.GG-X/	.	8.ccnL	16b--\LL	8ryy	.	.
.	.	.	16e-X\	.	.	.
.	.	.	16a-X\	8a-X/	.	.
16F-XJk 16FF-X	.	16dd-XJk	16d-X\JJ	.	.	.
!	!	!	!LO:TX:t=P:mixed beam:problem	!	!	!
4E-\ 4EE-\	.	4c-X/	16c-X\LL	2ryy	.	.
.	.	.	16Gn</	.	.	.
.	.	.	16A-X</	.	.	.
.	.	.	16E</JJ	.	.	.
!	!	!	!LO:TX:t=P:mixed beam:problem	!	!	!
4D-X\ 4DD-X\	.	4e-/	16B-X\LL	.	.	.
.	.	.	16F#X</	.	.	.
.	.	.	16G</	.	.	.
.	.	.	16E</JJ	.	.	.
*	*	*	*v	*v	*	*
*	*	*v	*v	*	*
=114	=114	=114	=114	=114
16CCn\LL	.	4a-X 4e-X 4A-X<	.	.
16EE-X	.	.	.	.
16AA-X	.	.	.	.
16CnJJ	.	.	.	.
16DLL	.	8r	.	.
16Fn	.	.	.	.
16E-X	.	8an 8g-X 8cn	.	<
16e-yJJ	.	.	.	.
16d-XLL	.	8b-XL 8fn	.	.
16D-X	.	.	.	.
16AAn	.	8ccn 8f 8c	.	.
16FJJ	.	.	.	.
16BB-yLL	.	8dd-X 8b- 8f 8d-X	.	.
16F	.	.	.	.
16AA-X	.	8ddnJ 8cc-X 8f 8dn	.	.
16A-XJJ	.	.	.	[[
!!LO:LB:g=original
=115	=115	=115	=115	=115
16GG/LL	.	4ee-X 4b-X 4e-X	.	.
16BB-X	.	.	.	.
16E-X	.	.	.	.
16GJJ	.	.	.	.
16B-XLL	.	8.een/L 8.ccn/ 8.g/ 8.en/	.	.
16cn	.	.	.	.
16A-X	.	.	.	.
!	!	!LO:S:s=1:note:problem:note-level slur	!	!
16cJJ	.	16ffnJk 16cc 16fn	.	.
16GLL	.	4g 4e-X 4cny	.	.
16F#	.	.	.	.
16A-	.	.	.	.
16GJJ	.	.	.	.
16FnLL	.	4bn 4g 4d 4Bn	.	.
16En	.	.	.	.
16G	.	.	.	.
16FJJ	.	.	.	.
=116	=116	=116	=116	=116
16E\LL	.	4ccn 4g 4cn	.	.
16Cn	.	.	.	.
16GG	.	.	.	.
16EEJJ	.	.	.	.
!	!	!LO:TX:t=P:rendering:łuk nakłada się na nuty:problem	!	!
16EE-X\LL	.	(>8.fnL 8.cn< 8.A<	.	.
16FFny	.	.	.	.
16DD-X	.	.	.	.
!	!	!LO:S:s=1:note:problem:note-level slur	!	!
16FFJJ	.	16b-XJk 16f 16B-X<	.	<
16CCn\LL	.	4A-X</ 4E-X</	.	.
16BBBn	.	.	.	.
16DD-X	.	.	.	.
16CCJJ	.	.	.	.
16BBB-X\LL	.	4B-< 4G< 4D-X<	.	.
16AAAn	.	.	.	.
16CC	.	.	.	.
16BBB-JJ	.	.	.	[
!	!	!	!	!LO:DY:b=2
.	.	.	.	.
=117	=117	=117	=117	=117
*ped	*	*	*	*
8AAA-X/	.	8cn<) 8G-X< 8E-X<	.	fz
!	!	!	!	!LO:DY:b=2
16A-X\LL)	.	8rff	.	p
!	!	!LO:TX:a:t=P:łuk nakłada się na nuty:problem	!	!
(>16a-X>JJ	.	.	.	.
16g-X>LL	.	4rff	.	.
16e-X>	.	.	.	.
16A-\	.	.	.	.
16a->JJ	.	.	.	.
16g->LL	.	2rgg	.	.
16e->	.	.	.	.
16A-\	.	.	.	.
*Xped	*	*	*	*
16a->JJ	.	.	.	.
16g->LL	.	.	.	.
16e->	.	.	.	.
16A-\	.	.	.	.
16a->JJ	.	.	.	.
!!LO:LB:g=original
=118	=118	=118	=118	=118
16g->XLL	.	2rff	.	.
16e->X	.	.	.	.
16A-X	.	.	.	.
16b->XJJ	.	.	.	.
16g->LL	.	.	.	.
16e->	.	.	.	.
16A-	.	.	.	.
16a-X>JJ	.	.	.	.
16g->LL	.	4rgg	.	.
16e->	.	.	.	.
16A-	.	.	.	.
16b->JJ	.	.	.	.
16g->LL	.	(>4gg-X	.	.
16cn>	.	.	.	.
16A-	.	.	.	.
16a->JJ)	.	.	.	.
=119	=119	=119	=119	=119
16fn>LL	.	8ffn/L	.	.
16d->X	.	.	.	.
16A-X	.	8dd-X	.	.
16b->XJJ	.	.	.	.
16g-X>\LL	.	8.b-y	.	.
16e-X>\	.	.	.	.
16A-	.	.	.	.
16a-y>JJ	.	16ccnJk	.	.
16f>LL	.	4dd-/	.	.
16d->	.	.	.	.
16A-X	.	.	.	.
16b->JJ	.	.	.	.
16g->LL	.	4ee-X/	.	.
16cn>	.	.	.	.
16A-	.	.	.	.
16a->JJ	.	.	.	.
=120	=120	=120	=120	=120
16fn>LL	.	4ffn/	.	.
16d-X>	.	.	.	.
16A-X	.	.	.	.
16a-X>JJ	.	.	.	.
16f>LL	.	8.bb-X/L	.	.
16dn>	.	.	.	.
16A-	.	.	.	.
16a->JJ	.	16aa-XJk	.	.
16g-X>\LL	.	12bb-/L	.	.
16e-X>\	.	.	.	.
.	.	12.aa-	.	.
16A-	.	.	.	.
16b->JJ	.	.	.	.
.	.	24gg-XJk	.	.
16g->LL	.	12gg-/L	.	.
16cn	.	.	.	.
.	.	12.ff	.	.
16A-	.	.	.	.
16a->JJ	.	.	.	.
.	.	24eenJk	.	.
=121	=121	=121	=121	=121
16fn>LL	.	8ffn/L	.	.
16d-X>	.	.	.	.
16A-X	.	8dd-X	.	.
16b-X>JJ	.	.	.	.
16g-X>\LL	.	8b-y	.	.
16e-X>\	.	.	.	.
16A-	.	8ccnJ	.	.
16a-X>JJ	.	.	.	.
16f>LL	.	8dd-/L	.	.
16d->	.	.	.	.
16A-	.	8ddnJ)	.	.
16b->JJ	.	.	.	.
16g->LL	.	16rff	.	.
16cn>	.	(>/8ee-XL	.	.
16A-	.	.	.	.
16a->JJ	.	16eenJk	.	.
!!LO:LB:g=original
=122	=122	=122	=122	=122
!	!	!LO:TX:a:t=P:łuk nakłada się na nuty:problem	!	!
N(>16fn>LL	.	8ee/L	.	.
16d-X>	.	.	.	.
*ped	*	*	*	*
16A-X	.	8ffnJ)	.	.
16b-X>JJ	.	.	.	.
16f>LL	.	4rff	.	.
16d->	.	.	.	.
16A-	.	.	.	.
16a-y>JJ	.	.	.	.
2rD	.	16fnyLL	.	.
.	.	16d-y	.	.
.	.	16A-y<	.	.
.	.	16a-yJJ	.	.
.	.	16fLL	.	.
.	.	16d-	.	.
.	.	16A-<	.	.
.	.	16a-JJ	.	.
=123	=123	=123	=123	=123
*tuplet	*	*	*	*
!LO:TUP:a	!	!	!	!
(>12A-XL	.	16fnLL	.	.
.	.	16d-X	.	.
*Xped	*	*	*	*
12.G-X	.	.	.	.
.	.	16A-X	.	.
.	.	16a-XJJ	.	.
24FnJk	.	.	.	.
*tuplet	*	*	*	*
!LO:TUP:a	!	!	!	!
12FL	.	16fLL	.	.
.	.	16d-	.	.
12.E-X	.	.	.	.
.	.	16A-	.	.
.	.	16a-JJ	.	.
24D-XJk	.	.	.	.
*ped	*	*	*	*
2D-)	.	16fLL	.	.
.	.	16d-	.	.
.	.	16A-	.	.
.	.	16a-JJ	.	.
.	.	16fLL	.	.
.	.	16d-	.	.
.	.	16A-	.	.
.	.	16a-JJ	.	.
=124	=124	=124	=124	=124
*tuplet	*	*	*	*
.	.	.	.	.
!LO:TUP:a	!	!	!	!
(>12FnL	.	16fnLL	.	.
.	.	16d-X	.	.
*Xped	*	*	*	*
12.E-X	.	.	.	.
.	.	16A-X	.	.
.	.	16a-XJJ	.	.
24D-XJk	.	.	.	.
!LO:TUP:b	!	!	!	!
12D-/L	.	16fLL	.	.
.	.	16d-	.	.
12.Cn	.	.	.	.
.	.	16A-	.	<
.	.	16a-JJ	.	.
24C-XJk	.	.	.	.
*ped	*	*	*	*
!LO:N:vis=4.	!	!	!	!
4C-/	.	16fLL	.	.
.	.	16e-X	.	.
.	.	16A-	.	.
.	.	16a-JJ	.	.
4CC-X)	.	16fLL	.	.
.	.	16e-	.	.
.	.	16A-	.	.
*Xped	*	*	*	*
.	.	16a-JJN)	.	[
=125	=125	=125	=125	=125
*ped	*	*	*	*
*Xtuplet	*	*	*	*
!LO:TX:a:t=P:problem:mixed beam	!	!	!	!
12BBB-X/'<LL	.	(>/8aa-XL	.	p
12B-X\	.	.	.	.
.	.	8ffn	.	.
12b->X\JJ	.	.	.	.
.	.	.	.	.
16a->XLL	.	8.ccn	.	.
16fn>	.	.	.	.
*Xped	*	*	*	*
16B-	.	.	.	.
16b->JJ	.	16ddJ	.	.
16g>LL	.	4ee-X/	.	.
16e-X>	.	.	.	.
16B-	.	.	.	.
16ccny>JJ	.	.	.	.
16a->LL	.	4ffn/	.	.
16d>	.	.	.	.
16B-	.	.	.	.
16b->JJ	.	.	.	.
!!LO:LB:g=original
=126	=126	=126	=126	=126
16g>LL	.	4gg/	.	.
16e-X>	.	.	.	.
16B-X	.	.	.	.
16b-X>JJ	.	.	.	.
16g>LL	.	[>4cccn/	.	.
16en>	.	.	.	.
16B-	.	.	.	.
16b->JJ	.	.	.	.
16a-X>LL	.	8ccc/L]	.	.
16fn>	.	.	.	.
16B-	.	8bb-XJ	.	.
16b->JJ	.	.	.	.
16a->LL	.	[>4ccc/	.	.
16d>	.	.	.	.
16B-	.	.	.	.
16b->JJ	.	.	.	.
=127	=127	=127	=127	=127
16g>LL	.	4.cccnX]	.	.
16e->X	.	.	.	.
16B-X	.	.	.	.
16b-X>JJ	.	.	.	.
16g>LL	.	.	.	.
16en>	.	.	.	.
16B-	.	8bb-X/	.	.
16b->JJ	.	.	.	.
!	!	!LO:TUP:b	!	!
!	!	!LO:TX:t=P:"3" od trioli wyświetla się za nisko:problem	!	!
16a-y>LL	.	12cccL	.	.
16fn>	.	.	.	.
.	.	12.bb-	.	.
16B-	.	.	.	.
16ccn>JJ	.	.	.	.
.	.	24aa-XJk	.	.
!	!	!LO:TUP:b	!	!
!	!	!LO:TX:t=P:"3" od trioli wyświetla się za nisko:problem	!	!
16a->LL	.	12aa-L	.	.
16d>	.	.	.	.
.	.	12.gg	.	.
16B-	.	.	.	.
16b->JJ	.	.	.	.
.	.	24ff#XJk	.	.
=128	=128	=128	=128	=128
16g>LL	.	8gg	.	.
16e-X>	.	.	.	.
16B-X	.	4cccn/	.	.
16b-X>JJ	.	.	.	.
16g>LL	.	.	.	.
16en>	.	.	.	.
16B-	.	8bb-X/	.	.
16b->JJ	.	.	.	.
!	!	!LO:TUP:b	!	!
!	!	!LO:TX:t=P:"3" od trioli wyświetla się za nisko:problem	!	!
16a-X>LL	.	12cccL	.	.
16fn>	.	.	.	.
.	.	12.bb-	.	.
16B-	.	.	.	.
16ee->XJJ	.	.	.	>
.	.	24aa-XJk	.	.
*ped	*	*	*	*
!	!	!LO:TX:t=P:"dim." nakłada się na nuty:problem	!	!
16dd>LL	.	(>4aa-)	.	.
16a->	.	.	.	.
16f>	.	.	.	.
16B->XJJ	.	.	.	.
!	!	!	!	!LO:DY:HP:b=2
.	.	.	.	.
=129	=129	=129	=129	=129
!LO:TX:a:t=P:pp nakłada się na nuty:problem	!	!	!	!
16dd>LL	.	1rff	.	pp
16a-X>	.	.	.	.
16fn>	.	.	.	.
*Xped	*	*	*	*
.	.	.	.	.
16ee-X>JJ	.	.	.	.
*ped	*	*	*	*
16dd>\LL	.	.	.	.
16a->	.	.	.	.
16f>	.	.	.	.
16B-X>JJ	.	.	.	.
16a->LL	.	.	.	.
16d>	.	.	.	.
16B->	.	.	.	.
16b->XJJ	.	.	.	.
16a->LL	.	.	.	.
16d>	.	.	.	.
16B-X	.	.	.	.
16FnJJ	.	.	.	.
!!LO:PB:g=original
=130	=130	=130	=130	=130
16a->XLL	.	16ffnLL	.	.
16d>	.	16b-X	.	.
16B->X	.	16a-y	.	.
*Xped	*	*	*	*
16b-y>JJ	.	16ggJJ	.	.
16a->LL	.	16ffLL	.	.
16d>	.	16b-	.	.
16B->	.	16a-	.	.
16FnJJ	.	16dJJ	.	.
16fn>LL	.	16ddLL	.	.
16B-	.	16a-	.	.
16F	.	16d	.	.
16g>JJ	.	16ee-XJJ	.	.
16f>LL	.	16ddLL	.	.
16B-	.	16a-	.	.
16F	.	16d	.	.
16GJJ	.	16B-yJJ	.	.
=131	=131	=131	=131	=131
*tuplet	*	*	*	*
!LO:TUP:a	!	!	!	!
(>12A-XL	.	16fnLL	.	.
.	.	16B-X	.	.
12.G	.	.	.	.
.	.	16A-X	.	.
.	.	16b-XJJ	.	.
24FnJk)	.	.	.	.
!LO:TUP:a	!	!	!	!
(>12FL	.	16a-XLL	.	.
.	.	16d	.	.
12.E-X	.	.	.	.
.	.	16cn	.	.
.	.	16B-JJ	.	.
24DJk	.	.	.	.
*ped	*	*	*	*
2D)	.	16fLL	.	.
.	.	16B-	.	.
.	.	16A-	.	.
.	.	16b-JJ	.	.
.	.	16a-LL	.	.
.	.	16f	.	.
.	.	16B-	.	.
.	.	16A-JJ	.	.
*Xped	*	*	*	*
=132	=132	=132	=132	=132
!LO:TUP:a	!	!	!	!
(>12E--L	.	16fnLL	.	.
.	.	16c-X	.	.
12.D-X	.	.	.	.
.	.	16A-X	.	.
.	.	16a-JJ	.	.
24C-XJk	.	.	.	.
!LO:TUP:a	!	!	!	!
12C-\L	.	16fLL	.	.
.	.	16dn	.	.
12.BB-X	.	.	.	.
.	.	16A-X<	.	<
.	.	16Fn<JJ	.	.
24AA-XJk)	.	.	.	.
*ped	*	*	*	*
(<8AA-L	.	16dLL	.	.
.	.	16c-	.	.
8FFny	.	16A-	.	.
.	.	16a-yJJ	.	.
8DDn	.	16fLL	.	.
.	.	16d	.	.
8AAA-XJ	.	16Bn	.	.
*Xped	*	*	*	*
.	.	16bJJ)	.	[[
=133	=133	=133	=133	=133
*	*	*^	*	*
*ped	*	*	*	*	*
.	.	.	.	.	.
!	!	!LO:TX:t=P:łuk nakłada się na nuty:problem	!LO:N:vis=2	!	!
4GGG'<)	.	(>2ffn/)	8ffnL	.	.
.	.	.	8dd	.	.
*Xped	*	*	*	*	*
.	.	.	.	.	.
8r	.	.	8an	.	.
(>8a-X	.	.	[>8bnJ	.	.
8gL	.	8eeL	8bL]	.	.
8en	.	8ccn	8ccnJ	.	.
8c#X	.	8a#X	8rcyy	.	.
8dJ	.	8bJ	8aa-X/	.	.
!!LO:LB:g=original
=134	=134	=134	=134	=134	=134
8e-XL	.	8ryy	8gg/L 8ccn	.	.
8cn	.	4rccccyy	8ee-X	.	.
8G	.	.	8b-X	.	.
8AJ	.	8ryy	8ccnJ	.	.
8B-X)	.	4ffn	8dd-XL	.	.
4r	.	.	8b-	.	.
.	.	8ryy	8g#X	.	.
!	!	!LO:TX:t=P:cross-measure beam:problem	!	!	!
(>8f#X	.	8b#X	8aJ	.	.
=135	=135	=135	=135	=135	=135
8eL	.	8cc#	4g#X	.	.
8c#	.	4.ee^>)	.	.	.
8G#X	.	.	8bL	.	.
8A#XJ	.	.	8cc#J 8f#X	.	.
8BL)	.	2rgggyy	(>8dd#XL 8b 8f#	.	.
(>8e	.	.	8cc# 8gn	.	<
8d#X	.	.	8b 8f#	.	.
!	!	!	!LO:S:s=1:note:problem:note-level slur	!	!
8A#J	.	.	8eeJ 8cc# 8g	.	.
*	*	*v	*v	*	*
=136	=136	=136	=136	=136
*tuplet	*	*Xtuplet	*	*
!LO:TUP:a	!	!	!	!
12A#XL	.	12eeL 12cc# 12g	.	.
12B)	.	12dd#X) 12b 12f#	.	<
12BJ	.	(>12dd#J) 12b 12f#j	.	.
!LO:TUP:a	!	!	!	!
12BL	.	12dd#L 12b 12f#	.	.
12e 12E	.	12cc# 12a#X 12g)	.	.
12eJ 12E	.	12cc#J) 12a# 12gj	.	.
*Xtuplet	*	*	*	*
12eL 12E	.	12cc#L 12a# 12g	.	.
12d#X 12D#X	.	(>12b 12f#	.	.
12d#J 12D#	.	12gg#XJ 12b 12f#j	.	.
*tuplet	*	*tuplet	*	*
!LO:TUP:a	!	!LO:TUP:b	!	!
12d#L 12D#	.	12ff#/L 12b/ 12f#/	.	[
12A#X 12AA#X	.	12ff#) 12cc# 12f#	.	.
24r	.	24r	.	.
24A#Jk 24AA#	.	24eeJk 24cc# 24f#	.	.
=137	=137	=137	=137	=137
*	*	*^	*	*
8B 8BB	.	8dd#X 8b 8f#	2.rAyy	.	f
8r	.	8r	.	.	.
!	!	!	!	!	!LO:DY:rj
4BB/ 4BBB/	.	(>/4dd# 4g#X/ 4d#X/	.	.	.
4C#/ 4CC#/	.	4cc#/ 4g#/ 4e/	.	.	.
.	.	8qcc#/	.	.	.
4D#X/ 4DD#X/	.	8.bL	4f##X 4c#	.	.
.	.	16a#XJk	.	.	.
!!LO:LB:g=original
=138	=138	=138	=138	=138	=138
*	*	*	*tuplet	*	*
!	!	!	!LO:TX:a:t=P:note position:w źródle 4b 4B przed 12g#:problem	!	!
!	!	!	!LO:TX:t=P:"3" od trioli nakłada się na łuk:problem	!	!
!	!	!	!LO:TUP:a	!	!
4G#X/ 4GG#X/	.	4b 4B	12g#XL	.	.
.	.	.	12f#	.	.
.	.	.	12eJ)	.	.
4GG# 4GGG#X	.	(>4b 4e 4B	2rFyy	.	.
4AA 4AAA	.	4a 4fn 4cn	.	.	.
.	.	8qa/	.	.	.
4BB 4BBB	.	8.gnL	4d#X 4B 4A	.	.
.	.	16f#yJk	.	.	.
*	*	*v	*v	*	*
=139	=139	=139	=139	=139
*ped	*	*	*	*
4C#\ 4CC#\	.	4e'> 4A#X< 4G<)	.	.
4r	.	(>16d#XLL	.	<
*Xped	*	*	*	*
.	.	16e	.	.
.	.	16g	.	.
.	.	16a#XJJ	.	.
*ped	*	*	*	*
4e 4A 4G 4C#	.	16dd#yLL	.	.
.	.	16ee	.	.
.	.	16eee	.	.
*Xped	*	*	*	*
.	.	16ddd#XJJ)	.	.
*ped	*	*	*	*
*	*	*8va	*	*
4d#X 4B 4F# 4D#X	.	16ccc#LL	.	.
.	.	16bb	.	.
.	.	16dddd#	.	.
.	.	32rfff	.	.
*Xped	*	*	*	*
.	.	(>32cccc#JJk	.	[[
=140	=140	=140	=140	=140
*ped	*	*	*	*
!LO:TX:t=P:problem:łuk pionowy od 8g# do 8E#	!	!	!	!
8g#X 8c# 8B 8E#X	.	16bbbLL	.	.
.	.	16aaa#X	.	.
8r	.	16ggg#X	.	.
.	.	16fff##XJJ	.	.
*Xped	*	*	*	*
16b>LL	.	16ggg#'>/LL 16ddd#y/	.	.
16a#X>	.	16fff#X'> 16ccc#	.	.
16g#X>	.	16eee#X'> 16bb	.	.
16f#>JJ	.	16ddd#'>JJ 16aa#y	.	.
*	*	*X8va	*	*
!	!	!LO:TX:a:t=loco	!	!
16ee#y>LL	.	16ccc#'>/LL 16gg#/	.	.
16dd#y>	.	16bb'> 16ff#	.	.
16cc#>	.	16aa#y'> 16ee#	.	.
16b>JJ	.	16gg#'>JJ 16dd#	.	.
16a#>LL	.	16ff#'>/LL 16cc#/	.	.
16g#>	.	16ee#'> 16b	.	.
16f#>	.	16dd#'> 16a#	.	.
16e#y>JJ	.	16cc#'>JJ 16g#y	.	.
=141	=141	=141	=141	=141
*	*	*^	*	*
32d#XLL	.	(>32bLL) 32f#	4rcyy	.	.
32rA	.	32rg	.	.	.
16c#k	.	16a#Xk 16e#X	.	.	.
16B	.	16g#X 16d#X	.	.	.
16A#XJJ	.	16f#JJ 16c#	.	.	.
8G#XL	.	16e#LL	8BL	.	.
.	.	16g#	.	.	.
8F#J	.	16d#	8BJ	.	.
.	.	16g#JJ	.	.	.
4B 4E#X	.	16c#LL	4c#	.	.
.	.	16g#	.	.	.
.	.	16f##X	.	.	.
*ped	*	*	*	*	*
.	.	16g#JJ	.	.	.
(>\8CC#L	.	16dd#yLL	4rByy	.	.
.	.	16cc#	.	.	.
8BJ 8C#	.	16d#	.	.	.
*Xped	*	*	*	*	*
.	.	16e#JJ)	.	.	.
*	*	*v	*v	*	*
!!LO:LB:g=original
=142	=142	=142	=142	=142
*^	*	*	*	*
*	*^	*	*	*	*
!LO:TX:t=P:problem:w źródle brak zakończenia łuku	!	!	!	!	!	!
8rByy	8C#\) 8FF#	4ryy	.	8f#'> 8A#X<	.	.
16F#LL	8AAA#X\L	.	.	(>4f#^>	.	.
16eJJ	.	.	.	.	.	.
!	!	!LO:N:vis=4	!	!	!	!
16dLL	8BBB\	8BBB	.	.	.	.
16c#	.	.	.	.	.	.
16B	8FF#\J	4FF#	.	8g#XL 8f#	.	.
16dJJ	.	.	.	.	.	.
16A#XLL	8FFF#\L	.	.	8a#XJ 8f#)	.	.
16c#	.	.	.	.	.	.
!	!	!LO:TX:b:t=P:8AAA# i 4AAA# powinny się na siebie nakładać:problem	!	!	!	!
16F#	8AAA#X\	4FF# 4AAA#X	.	(>4f#^>	.	.
16eJJ	.	.	.	.	.	.
16dLL	8BBB\	.	.	.	.	.
16c#	.	.	.	.	.	.
16B	8D\J	8ryy	.	8g#X 8f#)	.	.
16B-XJJ	.	.	.	.	.	.
*	*v	*v	*	*	*	*
=143	=143	=143	=143	=143	=143
*	*	*	*^	*	*
!	!	!	!	!LO:TX:a:t=P:problem:mixed beam	!	!LO:TX:t=P:mixed beam:problem
4ryy	8CC#\L	.	8rb	16A</LL	.	.
.	.	.	.	16Bn</	.	.
.	8EJ 8AA	.	(>4a^>	16A</	.	.
.	.	.	.	16g\JJ	.	.
4ryy	8DD\L	.	.	16f#LL	.	.
.	.	.	.	16e	.	.
.	8F#J 8AA	.	8b) 8a	16d	.	.
.	.	.	.	16f#JJ	.	.
2ryy	8EE#X\L	.	8rdd	16c#LL	.	.
.	.	.	.	16d	.	.
.	8GJ 8C#	.	(>4cc#^>	16c#	.	.
.	.	.	.	16bJJ	.	.
.	8FF#\L	.	.	16a#XLL	.	.
.	.	.	.	16g	.	.
!	!	!	!	!LO:TX:t=P:cross-measure beam:problem	!	!
.	8c#J 8F# 8AA#X	.	8ee) 8cc#	16f#	.	.
.	.	.	.	16gJJ	.	.
=144	=144	=144	=144	=144	=144	=144
.	.	.	.	.	.	.
!LO:TX:t=P:łuk pionowy od 8d do 8BB:problem	!	!	!	!	!	!
8d 8F# 8BB	2..ryy	.	8dd 8b 8f#	8rGyy	.	.
.	.	.	.	.	.	.
!LO:N:n=1:vis=4.	!	!	!	!LO:TX:t=P:mixed beam:problem	!	!
4FF# 4FFF#	.	.	(>4g^>	16G</LL	.	.
.	.	.	.	16f#\JJ 16d\	.	.
.	.	.	.	16eLL 16c#	.	.
.	.	.	.	16d	.	.
8A#X\ 8E\	.	.	8g)	16c#	.	.
.	.	.	.	16eJJ	.	.
!	!	!	!	!LO:TX:t=P:mixed beam:problem	!	!
8rGG	.	.	8r	16F#</LL	.	.
.	.	.	.	16G</	.	.
!LO:N:n=2:vis=4	!	!	!	!	!	!
4.FF# 4.FFF#	.	.	(>4f#^>	16F#</	.	.
.	.	.	.	16e\JJ 16c#\	.	.
.	.	.	.	16dLL 16B	.	.
.	.	.	.	16c#J	.	.
.	8D\	.	16gLL	8BJ	.	.
.	.	.	16f#JJ)	.	.	.
!!LO:LB:g=original
=145	=145	=145	=145	=145	=145	=145
!	!	!	!	!LO:TX:t=P:mixed beam:problem	!	!
8rFF	8rGGyy	.	8r	16E</LL	.	.
.	.	.	.	16F#</	.	.
!LO:N:n=1:vis=4.	!	!	!	!	!	!
4FF# 4FFF#/	4.ryy	.	(>4e^>	16E</	.	.
.	.	.	.	16d<\JJ 16B<\	.	.
.	.	.	.	16c#</LL 16A#<X/	.	.
.	.	.	.	16B</	.	.
8G\ 8E	.	.	8e)	16A#</	.	.
.	.	.	.	16c#</JJ	.	.
8rFF	8rDDyy	.	8r	16D<LL	.	.
.	.	.	.	16E<	.	.
4FFF#/	4.FF#/	.	(>4d^>	16D<	.	.
.	.	.	.	16c#<JJ 16A#<	.	.
.	.	.	.	16B<LL 16G#X<	.	.
.	.	.	.	16A#<	.	.
!LO:TX:b:t=P:cross-measure beam:problem	!	!	!	!	!	!
8E#X\	.	.	16enLL	16G#<	.	.
.	.	.	[<16dJJ)	16B<JJ	.	.
=146	=146	=146	=146	=146	=146	=146
*	*	*	*	*^	*	*
!	!	!	!LO:TX:t=P:powinny wyświetlać się 4 szesnastki:problem	!	!	!	!
!	!	!	!	!LO:N:vis=4	!	!	!
8F#\	2FF#\	.	(>16dLL]	8A#</	8ryy	.	.
.	.	.	16c#	.	.	.	>
!	!	!	!LO:N:vis=2	!LO:N:vis=2	!	!	!
!	!	!	!	!LO:TX:b:t=P:note position:w źródle 2 za 4.:problem	!	!	!
4.G 4.C#\	.	.	16E</	16E<\	2ryy	.	.
.	.	.	16B<JJ	4B<\	.	.	.
.	.	.	16dLL	.	.	.	.
.	.	.	16c#	.	.	.	.
.	.	.	16A#<	.	.	.	]
*	*	*	*	*	*	*	*^
!	!	!	!LO:TX:t=P:decrescendo nakłada się na belkę:problem	!	!	!	!	!
.	.	.	16c#JJ	16ryy	.	.	>	.
!	!	!	!	!	!	!	!LO:HP:a:t=dim._:ext=ud	!
!	!	!	!	!	!LO:TX:a:i:t=dim._ :problem:dynamics with extension lines	!	!	!LO:HP:a
8ryy	2FF#\	.	16F#<LL	8ryy	.	.	.	>
.	.	.	16A<#	.	.	.	.	.
!	!	!	!	!LO:TX:b:t=P:note position:w źródle 4 za 4.:problem	!	!	!	!
4.G\ 4.C#\	.	.	16E<	4E<\	16ryy	.	.	.
.	.	.	16B<JJ	.	4ryy	.	.	.
.	.	.	16dLL	.	.	.	]	.
.	.	.	16c#	.	.	.	.	.
.	.	.	16A#<	8ryy	.	.	.	.
.	.	.	16c#JJ	.	16ryy	.	.	.
=147	=147	=147	=147	=147	=147	=147	=147	=147
!	!	!	!LO:TX:t=P:decrescendo nakłada się na belkę:problem	!	!	!	!	!
8ryy	2FF#	.	16F#<LL	8ryy	8.ryy	.	>	.
.	.	.	16A#X<	.	.	.	.	.
!	!	!	!	!LO:TX:b:t=P:note position:w źródle 4. za 2x4.:problem	!	!	!	!
4.G\ 4.C#\	.	.	16E<	4.E<\	.	.	.	.
.	.	.	16B<JJ	.	8ryy	.	.	.
.	.	.	.	.	.	.	.	.
.	.	.	16dLL	.	.	.	.	.
.	.	.	16c#	.	16ryy	.	]]	]
*	*	*	*	*	*	*	*v	*v
.	.	.	16A#<	.	8F#<\	.	.
.	.	.	16dJJ	.	.	.	.
2r	2rDDDyy	.	16f#LL	2ryy	2ryy	.	.
.	.	.	16e	.	.	.	.
.	.	.	16c#	.	.	.	.
.	.	.	16f#JJ	.	.	.	.
.	.	.	16anLL	.	.	.	.
.	.	.	16g	.	.	.	.
.	.	.	16e	.	.	.	.
.	.	.	16bJJ)	.	.	.	.
*	*	*	*	*v	*v	*	*
*v	*v	*	*	*	*	*
*	*	*v	*v	*	*
!!LO:PB:g=original
=148	=148	=148	=148	=148
*ped	*	*	*	*
4FFF#'<	.	(>16dd/LL	.	.
.	.	16cc#	.	.
.	.	16a#X	.	.
.	.	16ddJJ	.	.
4r	.	16ff#LL	.	.
.	.	16ee	.	.
.	.	16cc#	.	.
.	.	16ff#JJ	.	.
8r	.	16aa#LL	.	.
.	.	16gg	.	.
(>8F#L	.	16ee	.	.
.	.	16bbJJ	.	.
8c#	.	16dddLL	.	.
.	.	16ccc#	.	.
8eJ	.	16aa#	.	.
.	.	16dddJJ	.	.
*	*	*8va	*	*
=149	=149	=149	=149	=149
4a#X\)	.	16fff#LL	.	.
.	.	16eee	.	.
.	.	16ccc#	.	.
.	.	16aaa#JJ	.	.
4r	.	16ggg#XLL	4	.
.	.	16gggn	4	.
.	.	16fff#	.	.
.	.	16fffnJJ	.	.
2r	.	16eeeLL	.	.
.	.	16dddd	.	.
.	.	16cccc#	.	.
.	.	16aaa#XJJ	.	.
.	.	16fffLL	.	.
.	.	16eee	.	.
.	.	16ccc#	.	.
.	.	16aa#XJJ	.	.
*	*	*X8va	*	*
=150	=150	=150	=150	=150
*	*^	*	*	*
!	!	!	!LO:TX:a:t=loco	!	!
2r	.	.	16ff#LL	.	.
.	.	.	16ee	1	.
.	.	.	16dd	5	.
.	.	.	16cc#JJ	.	.
.	.	.	16a#XLL	.	.
.	.	.	16f#	.	.
*Xped	*	*	*	*	*
.	.	.	16e	.	.
.	.	.	16c#JJ	.	.
4rBB	.	.	16A#X<LL	.	.
.	.	.	16F#<	.	.
.	.	.	16E<	.	.
.	.	.	16C#<JJ	.	.
!	!	!	!LO:TX:b:t=P:palcowanie powinno wyświetlać się nad belką:problem	!	!
16rFFFyy	.	.	16AA#X<LL	3	.
16EE#X\	.	.	16EE#X<	.	.
!LO:TX:t=P:fingering is not displayed:problem	!	!	!	!	!
16rGGGyy	.	.	16GG#X<	2	.
16FF#\	.	.	16FF#<JJ)	.	.
*	*v	*v	*	*	*
!!LO:LB:g=original
=151	=151	=151	=151	=151
*k[f#c#g#d#a#]	*	*k[f#c#g#d#a#]	*	*
*tuplet	*	*	*	*
*ped	*	*	*	*
!LO:TUP:a	!	!LO:TX:a:i:t=sostenuto	!	!
!LO:TX:t=P:problem:w źródle 2x triola, a nie 1x sekstola	!	!	!	!
(>\12BBBL	.	4r	.	.
12D#\	.	.	.	.
12B	.	.	.	.
12F#	.	(>2dd#	.	>
12D#	.	.	.	.
12d#J	.	.	.	.
*Xtuplet	*	*	*	*
12FF#L	.	.	.	.
12D#	.	.	.	.
12B	.	.	.	.
12F#	.	8.eeL	.	.
12D#	.	.	.	.
*Xped	*	*	*	*
12d#J	.	.	.	.
.	.	16dd#Jk	.	.
=152	=152	=152	=152	=152
*ped	*	*	*	*
12BBL	.	4cc#	.	.
12D#	.	.	.	.
12B	.	.	.	.
12F#	.	4b)	.	]
12D#	.	.	.	.
*Xped	*	*	*	*
12d#J	.	.	.	.
*ped	*	*	*	*
12FF#L	.	4r	.	.
12D#	.	.	.	.
12B	.	.	.	.
12F#	.	(>8d#L	.	<
12D#	.	.	.	.
.	.	8a#J	.	.
*Xped	*	*	*	*
12d#J)	.	.	.	.
=153	=153	=153	=153	=153
*ped	*	*	*	*
(>\12BBBL	.	8g#L	.	.
12D#	.	.	.	.
.	.	8f#	.	.
12B	.	.	.	.
12F#	.	8a#	.	.
12D#	.	.	.	.
*Xped	*	*	*	*
.	.	8bJ	.	.
12d#J	.	.	.	.
*ped	*	*	*	*
12BBL	.	8cc##XL	.	.
12D#	.	.	.	.
.	.	8dd#	.	.
12B	.	.	.	.
12G#	.	8.gg#	.	.
12D#	.	.	.	.
*Xped	*	*	*	*
12d#J	.	.	.	.
.	.	16ff#Jk	.	.
=154	=154	=154	=154	=154
*ped	*	*	*	*
12C#L	.	4ff#	.	[[
12E	.	.	.	.
12c#	.	.	.	.
*Xped	*	*	*	*
12G#	.	4ee)	.	.
12E	.	.	.	.
12eJ	.	.	.	.
*ped	*	*	*	*
12C#L	.	2r	.	.
12E	.	.	.	.
12c#	.	.	.	.
12An	.	.	.	.
12E	.	.	.	.
*Xped	*	*	*	*
12eJ)	.	.	.	.
!!LO:LB:g=original
=155	=155	=155	=155	=155
*ped	*	*	*	*
(>12CC#L	.	(>[2ee	.	.
12E	.	.	.	.
12c#	.	.	.	.
12A#X	.	.	.	.
12E	.	.	.	.
*Xped	*	*	*	*
12eJ	.	.	.	.
*ped	*	*	*	*
12AA#L	.	8eeL]	.	.
12E	.	.	.	.
.	.	8b#X	.	.
12c#	.	.	.	.
12A#	.	8dd#	.	.
12E	.	.	.	.
*Xped	*	*	*	*
.	.	8cc#J	.	.
12eJ	.	.	.	.
=156	=156	=156	=156	=156
*ped	*	*	*	*
12C#L	.	4cc#\	.	.
12E	.	.	.	.
12c#	.	.	.	.
12A#	.	4e)	.	.
*Xped	*	*	*	*
12E	.	.	.	.
12eJ	.	.	.	.
*ped	*	*	*	*
12AA#L	.	4r	.	.
12E	.	.	.	.
12c#	.	.	.	.
12A#	.	(>8.g#L	.	.
12E	.	.	.	.
*Xped	*	*	*	*
!LO:TX:t=P:złe wyświetlanie wartości rytmicznej:problem	!	!	!	!
12eJ)	.	.	.	.
.	.	16a#Jk	.	.
=157	=157	=157	=157	=157
*ped	*	*	*	*
.	.	.	.	.
(>12CC#L	.	8g#L	.	<
12E	.	.	.	.
.	.	8f#	.	.
12c#	.	.	.	.
12A#	.	8a#	.	.
12E	.	.	.	.
.	.	8bJ	.	.
12eJ	.	.	.	.
12C#L	.	8cc#\L	.	.
12E	.	.	.	.
.	.	8ee	.	.
12c#	.	.	.	.
12A#	.	8.aa#	.	.
12E	.	.	.	.
*Xped	*	*	*	*
.	.	.	.	.
12eJ)	.	.	.	.
.	.	16gg#Jk	.	[
=158	=158	=158	=158	=158
*ped	*	*	*	*
(>12C##XL	.	2ee#X/	.	.
12B	.	.	.	.
12g#>	.	.	.	.
12e#X>	.	.	.	.
12B>	.	.	.	.
*Xped	*	*	*	*
12b>J)	.	.	.	.
*ped	*	*	*	*
(>12D#L	.	4ff#/	.	.
12B	.	.	.	.
12f#>	.	.	.	.
12F#	.	8.ee#/L	.	.
12B	.	.	.	.
*Xped	*	*	*	*
12f#>J)	.	.	.	.
.	.	16dd#Jk)	.	.
!!LO:LB:g=original
=159	=159	=159	=159	=159
*ped	*	*	*	*
12D#L	.	(>4.dd#/	.	.
12A#	.	.	.	.
12f##X>	.	.	.	.
12c#	.	.	.	.
12A#	.	.	.	.
.	.	8cc#/	.	.
*Xped	*	*	*	*
12f##>J	.	.	.	.
*ped	*	*	*	*
!LO:TX:t=P:łuk nakłada się na laski:problem	!	!	!	!
(>12G#L	.	4b/	.	.
12g#>	.	.	.	.
*Xped	*	*	*	*
12d#>J)	.	.	.	.
*ped	*	*	*	*
!LO:TX:t=P:łuk nakłada się na laski:problem	!	!	!	!
(>\12C#L	.	8.cc#L	.	.
12e#X>	.	.	.	.
*Xped	*	*	*	*
12BJ)	.	.	.	.
.	.	16g#Jk	.	.
=160	=160	=160	=160	=160
*ped	*	*	*	*
12F#L	.	8bL	.	.
12e	.	.	.	.
.	.	8a#	.	.
*Xped	*	*	*	*
12c#J	.	.	.	.
.	.	8qa#/	.	.
*ped	*	*	*	*
12FF#L	.	8g#	.	.
12e	.	.	.	.
.	.	8f#J	.	.
*Xped	*	*	*	*
12A#J	.	.	.	.
*ped	*	*	*	*
(>12BBL	.	4f#	.	.
12F#	.	.	.	.
12d#	.	.	.	.
12B	.	8.dd#L)	.	.
12F#	.	.	.	.
*Xped	*	*	*	*
12f#J)	.	.	.	.
.	.	(>16dd#Jk	.	.
=161	=161	=161	=161	=161
*ped	*	*	*	*
(>12EL	.	4.dd#\	.	.
12A#	.	.	.	.
12f##X>	.	.	.	.
12c#	.	.	.	.
12A#	.	.	.	.
.	.	[>8cc#/	.	.
*Xped	*	*	*	*
12f##>J)	.	.	.	.
*ped	*	*	*	*
!	!	!LO:TUP:a	!	!
(>12D#L	.	12cc#\L]	.	.
12F#	.	12a#	.	.
12f#y	.	12b	.	.
12B	.	12cc#	.	.
12F#	.	12ee	.	.
*Xped	*	*	*	*
12f#J)	.	12dd#J	.	.
=162	=162	=162	=162	=162
*ped	*	*	*	*
(>12AA#L	.	4f#	.	.
12F#	.	.	.	.
12e	.	.	.	.
!	!	!LO:TUP:b	!	!
12c#	.	12a#L	.	.
12F#	.	12.g#	.	.
*Xped	*	*	*	*
12eJ)	.	.	.	.
.	.	24f#Jk	.	.
*ped	*	*	*	*
(>12BBL	.	4f#	.	<
12F#	.	.	.	.
12d#	.	.	.	.
.	.	8qg#	.	.
12B	.	4g#T>	.	.
12E#X	.	.	.	.
12d#J)	.	.	.	.
.	.	16qqf#TTT>/LL	.	.
*Xped	*	*	*	*
.	.	16qqg#TTT>/JJ	.	[
!!LO:LB:g=original
=163	=163	=163	=163	=163
*ped	*	*	*	*
(>12AA#L	.	4a#	.	.
12F#	.	.	.	.
12d#	.	.	.	.
12A#	.	8g##XL	.	.
12F#	.	.	.	.
.	.	8a#J	.	.
*Xped	*	*	*	*
12AA#J)	.	.	.	.
*ped	*	*	*	*
(>12GG#L	.	8b#XL	.	<
12E#X	.	.	.	.
.	.	8cc##X	.	.
12c##X	.	.	.	.
12B	.	8dd#	.	.
.	.	.	.	.
12E#	.	.	.	.
.	.	8ee#XJ	.	[[
*Xped	*	*	*	*
12GG#J)	.	.	.	.
=164	=164	=164	=164	=164
*ped	*	*	*	*
*tuplet	*	*	*	*
!LO:TUP:a	!	!	!	!
(>12FF#\L	.	8ff#\L	.	f
12D#	.	.	.	.
.	.	8bb	.	.
12A#J	.	.	.	.
8d#)	.	8aa#	.	.
*Xped	*	*	*	*
.	.	.	.	.
8r	.	8ff#J	.	.
*ped	*	*	*	*
!LO:TUP:a	!	!	!	!
(>\12GG#L	.	8dd#/L	.	.
12D#	.	.	.	.
.	.	8b	.	.
12E#XJ	.	.	.	.
8B)	.	8d#	.	.
*Xped	*	*	*	*
8r	.	8g#J	.	.
=165	=165	=165	=165	=165
*Xtuplet	*	*Xtuplet	*	*
!	!	!	!	!LO:DY:rj
*ped	*	*	*	*
(>12AA#L	.	8.f#L	.	.
12D#	.	.	.	.
12A#	.	.	.	.
.	.	16bJk	.	.
12F#	.	2a#	.	.
12D#	.	.	.	.
*Xped	*	*	*	*
12A#J)	.	.	.	.
*ped	*	*	*	*
*	*	*	*	*^
(>12AAA#\L	.	.	.	.	.
12AA#	.	.	.	.	<
12E#X	.	.	.	.	.
.	.	16qqB#X/LL	.	.	.
!	!	!	!	!LO:HP:b=2	!
.	.	16qqc##X/JJ	.	>	.
12B 12G#	.	4c##yt>	.	.	.
*Xped	*	*	*	*	*
12A# 12F#	.	.	.	.	.
12G#J 12E#)	.	.	.	]]	.
.	.	16qqB#/LL	.	.	.
.	.	16qqc##/JJ	.	.	.
=166	=166	=166	=166	=166	=166
*	*	*	*	*^	*
*ped	*	*	*	*	*	*
12DD#L	.	4d#)	.	.	.	.
12AA#	.	.	.	.	.	.
12F#	.	.	.	.	.	.
12D#	.	(>/2dd#	.	.	.	.
12A#	.	.	.	.	>	[
*	*	*	*	*	*v	*v
12f#>J	.	.	.	.	.
16d#>LL	.	.	.	.	.
16A#	.	.	.	.	.
16F#	.	.	.	.	.
*Xped	*	*	*	*	*
16g#>JJ	.	.	.	.	.
16d#>LL	.	4dd#	.	.	p]
16A#	.	.	.	.	.
16F#	.	.	.	.	.
!	!	!	!	!	!LO:DY:rj
16f#>JJ	.	.	.	.	.
*	*	*	*	*v	*v
!!LO:PB:g=original
=167	=167	=167	=167	=167
16e>LL	.	8eeL	.	]
16c#	.	.	.	.
16F#	.	8cc#	.	.
16g#>JJ	.	.	.	.
16e>LL	.	8g#	.	.
16c#>	.	.	.	.
16F#	.	8a#J	.	.
16f#>JJ	.	.	.	.
16d#>LL	.	4b	.	.
16B	.	.	.	.
16F#	.	.	.	.
16g#>JJ	.	.	.	.
16e>LL	.	4cc#	.	.
16A#	.	.	.	.
16F#	.	.	.	.
16f#>JJ	.	.	.	.
=168	=168	=168	=168	=168
16d#>LL	.	4dd#	.	.
16B	.	.	.	.
16F#	.	.	.	.
16f#>JJ	.	.	.	.
16d#>LL	.	8.gg#L	.	.
16B#X	.	.	.	.
16F#	.	.	.	.
16f#>JJ	.	16ff#Jk	.	.
*	*	*tuplet	*	*
16d#>LL	.	12gg#L	.	.
16c#	.	.	.	.
.	.	12.ff#	.	.
16F#	.	.	.	.
16g#>JJ	.	.	.	.
.	.	24eeJk	.	.
16e>LL	.	12eeL	.	.
16A#	.	.	.	.
.	.	12.dd#	.	.
16F#	.	.	.	.
16f#>JJ	.	.	.	.
.	.	24cc##XJk	.	.
=169	=169	=169	=169	=169
16d#>LL	.	8dd#L	.	.
16B	.	.	.	.
16F#	.	8b	.	.
16g#>JJ	.	.	.	.
16e>LL	.	8g#	.	.
16c#	.	.	.	.
16F#	.	8a#J	.	.
16f#>JJ	.	.	.	.
.	.	.	.	.
16d#>LL	.	8bL	.	.
16B	.	.	.	.
16F#	.	8b#XJ)	.	.
16g#>JJ	.	.	.	.
16e>LL	.	16rcc	.	.
16A#	.	(>8cc#L	.	.
16F#	.	.	.	.
16f#>JJ	.	16cc##XJk	.	.
=170	=170	=170	=170	=170
16d#>LL	.	8dd#L	.	.
16B	.	.	.	.
16F#	.	8ee	.	.
16f#>JJ	.	.	.	.
*	*	*tuplet	*	*
!	!	!LO:TUP:b	!	!
!	!	!LO:TX:t=P:problem:w źródle brak klamry kwadratowej	!	!
16dn>LL	.	12ee#X/	.	.
16B	.	.	.	.
.	.	12aa#	.	.
16F#	.	.	.	.
.	.	12gg#J	.	.
16f#>JJ	.	.	.	<
16c#XLL	.	2ff#/)	.	.
16B	.	.	.	.
16F#	.	.	.	.
16f#>JJ	.	.	.	.
16c#LL	.	.	.	.
16A#	.	.	.	.
16E	.	.	.	.
16f#>JJ	.	.	.	[[
!!LO:LB:g=original
=171	=171	=171	=171	=171
*	*	*^	*	*
*ped	*	*	*	*	*
!	!	!LO:TX:a:t=P:note position:2 za 4:problem	!	!	!
(>16D#LL	.	(>\4bb 4b\	2ff#\	.	.
16F#	.	.	.	.	.
16B	.	.	.	.	.
16F#J	.	.	.	.	.
8f#J)	.	8aa#\L 8a#\	.	.	.
*Xped	*	*	*	*	*
8r	.	8gg#J) 8g#	.	.	.
*ped	*	*	*	*	*
(>16C#LL	.	(>8aa#L 8ff# 8ee 8a#	2ryy	.	.
16F#	.	.	.	.	.
16e	.	8gg# 8g#	.	.	.
16A#XJ	.	.	.	.	.
.	.	8qgg#/ 8g#	.	.	.
8f#J)	.	8ff# 8f#	.	.	.
*Xped	*	*	*	*	*
8r	.	8ee#XJ) 8e#X	.	.	.
*	*	*v	*v	*	*
=172	=172	=172	=172	=172
*ped	*	*	*	*
(>16BBLL	.	(>8.gg#L 8.dd# 8.b 8.g#	.	.
16F#	.	.	.	.
16B	.	.	.	.
16F#J	.	16ff#Jk 16f#	.	.
!	!	!LO:TUP:b	!	!
8f#J)	.	12ff#/L 12b/ 12f#/	.	.
.	.	12ee 12e	.	.
*Xped	*	*	*	*
8r	.	.	.	.
.	.	12dd#J 12d#	.	.
*ped	*	*	*	*
(>16ELL	.	8.dd#L 8.a# 8.d#	.	<
16F##X	.	.	.	.
16A#	.	.	.	.
16F##J	.	16cc#k 16c#	.	.
8f##XJ)	.	8.dd# 8.a# 8.d#	.	.
*Xped	*	*	*	*
8r	.	.	.	.
.	.	16eeJk 16e)	.	[
=173	=173	=173	=173	=173
*	*	*^	*	*
.	.	.	(>8qb/	.	f
*ped	*	*	*	*	*
(>16DD#\LL	.	2rgggyy	16bLL	.	.
16BB	.	.	16bb) 16ff#	.	.
16F#	.	.	16rff	.	.
16D#J	.	.	(>16aa#JJ 16a#	.	.
!	!	!	!LO:TUP:a	!	!
!	!	!	!LO:TX:t=P:problem:w źródle brak klamry kwadratowej	!	!
8f#J 8B 8F#)	.	.	24aa#LL 24a#	.	.
.	.	.	24dd# 24b	.	.
.	.	.	24gg#) 24g#	.	.
*Xped	*	*	*	*	*
8r	.	.	16r	.	.
.	.	.	(>16ff#JJ 16f#	.	.
*ped	*	*	*	*	*
(>16CC#\LL	.	4a#	16a#LL	.	.
16FF#	.	.	16aa#) 16ff# 16ee	.	.
16F#	.	.	16r	.	.
16C#J	.	.	(>16gg#JJ 16g#	.	.
!	!	!	!LO:TUP:a	!	!
!	!	!	!LO:TX:t=P:problem:w źródle brak klamry kwadratowej	!	!
8eJ 8A# 8F#)	.	4rbbbyy	24gg#LL 24g#	.	.
.	.	.	24ee 24a#	.	.
*Xped	*	*	*	*	*
.	.	.	24ff#) 24f#	.	.
8r	.	.	16r	.	.
.	.	.	(>16ee#XJJ 16e#X	.	.
*	*	*v	*v	*	*
!!LO:LB:g=original
=174	=174	=174	=174	=174
*ped	*	*	*	*
16BBB/LL	.	16gg#LL 16g#	.	.
16FF#	.	16dd#) 16b	.	.
16F#	.	16r	.	.
16D#J	.	(>16ff#JJ 16f#	.	.
!	!	!LO:TUP:a	!	!
!	!	!LO:TX:t=P:problem:w źródle brak klamry kwadratowej	!	!
8d#J 8B 8F#	.	24ff#\LL 24f#\	.	.
.	.	24b	.	.
.	.	24ee) 24e	.	.
!LO:N:vis=4	!	!	!	!
8r	.	16r	.	.
.	.	16dd#JJ (>16d#	.	.
(>16EE\LL	.	16dd#\LL 16d#\	.	.
16AA#	.	16a# 16f##X)	.	.
16C#	.	16r	.	.
16EJJ	.	(>16cc#JJ 16c#	.	.
16GnLL	.	16dd#\LL 16d#\	.	.
16A#	.	16a# 16f##)	.	.
16c#	.	16r	.	.
*Xped	*	*	*	*
16gnJJ	.	(16eeJJ 16e	.	.
=175	=175	=175	=175	=175
*ped	*	*	*	*
8f#) 8B#X 8Any 8D#'>	.	8ff#X) 8b#X 8an	.	.
8r	.	8r	.	.
(>4D#^>	.	2b#X 2a 2f# (>2B#X	.	<
*Xped	*	*	*	*
.	.	.	.	.
16C##XLL	.	.	.	.
16D#	.	.	.	.
16F#	.	.	.	.
16EJJ	.	.	.	.
16BB#X\LL	.	4cc# 4a 4f# 4c#	.	.
16C#y	.	.	.	.
16E	.	.	.	.
16D#JJ)	.	.	.	.
=176	=176	=176	=176	=176
*	*	*^	*	*
*ped	*	*	*	*	*
4BB#X 4BBB#X	.	4.rbbbyy	8dd#/) 8g#/ 8f#/	.	[
!	!	!	!LO:TX:a:i:t=leggiero	!	!
.	.	.	.	.	.
!	!	!	!	!	!LO:DY:rj
.	.	.	/16G#<LL	.	.
.	.	.	16g#JJ	.	.
.	.	.	8qg#/	.	.
4f#' 4d# 4G#	.	.	16aa#LL	.	.
.	.	.	16gg#	.	.
*Xped	*	*	*	*	*
.	.	(>8ddd#	16ff##X	.	.
.	.	.	16ff#XJJ	.	.
*ped	*	*	*	*	*
4C#' 4CC#	.	8ddd#L	16ee#XLL	.	.
.	.	.	16ff#	.	.
.	.	8ccc#J)	16gg#	.	.
.	.	.	16bJJ	.	.
4e#X' 4c# 4B	.	8rccc	16ee#LL	.	.
.	.	.	16dd#	.	.
.	.	(>8gg#	16cc#	.	.
*Xped	*	*	*	*	*
.	.	.	.	.	.
.	.	.	16bJJ	.	.
!!LO:LB:g=original
=177	=177	=177	=177	=177	=177
*ped	*	*	*	*	*
4FF#' 4FFF#	.	8gg#XL	16g##XLL	.	.
.	.	.	16a#	.	.
.	.	8ff#J)	16e	.	.
.	.	.	16cc#JJ	.	.
4e' 4A# 4F#	.	8rddd	16gg#LL	.	.
.	.	.	16ff#	.	.
.	.	(>8ccc#	16ee#X	.	.
.	.	.	16eenJJ	.	.
*ped	*	*	*	*	*
4BB'< 4BBB	.	8ccc#L	16dd#LL	.	.
.	.	.	16ee	.	.
.	.	8bbJ)	16ff#	.	.
.	.	.	16anJJ	.	.
4d#' 4B 4F#	.	8rccc	16dd#LL	.	.
.	.	.	16cc#	.	.
.	.	(>8dd#	16b	.	.
*Xped	*	*	*	*	*
.	.	.	.	.	.
.	.	.	16aJJ	.	.
=178	=178	=178	=178	=178	=178
*^	*	*	*	*	*
*ped	*	*	*	*	*	*
8rByy	(>8EE'</	.	8.dd#L	16f##XLL	.	.
.	.	.	.	16g#	.	.
!	!	!	!	!	!	!LO:HP:b=2
[>4.E	8EL	.	.	16c#	.	<
.	.	.	16cc#Jk	16cc#JJ	.	.
.	8G#	.	16aa#/LL	N[>4G#</	.	.
.	.	.	16gg#	.	.	.
*Xped	*	*	*	*	*	*
.	8d#J	.	16ee	.	.	.
.	.	.	16dd#JJ	.	.	[
4e) 4G#N] 4E])	2ryy	.	16cc#LL	2rcyy	.	.
.	.	.	16b	.	.	.
.	.	.	16g#	.	.	.
.	.	.	16eJJ	.	.	.
4r	.	.	16c#LL	.	.	.
.	.	.	16B<	.	.	.
.	.	.	16G#<	.	.	.
.	.	.	16bJJ)	.	.	.
*	*	*	*v	*v	*	*
=179	=179	=179	=179	=179	=179
!	!	!	!LO:TX:t=P:łuk nakłada się na nuty:problem	!	!
2.ryy	4EE/	.	(>4c#< 4B< 4G#<	.	.
.	.	.	.	.	.
!	!	!	!LO:TX:a:i:t=tenuto.	!	!
.	4DD#/	.	4d# 4B< 4F#<	.	.
.	4CC#/	.	4e 4B< 4G#<	.	.
!	!	!	!LO:TX:t=P:the slur is not displayed:problem	!	!
.	.	.	N(<8qe/	.	.
4A# 4E	4FF#/	.	8.d#L	.	.
.	.	.	16c#Jk)	.	.
*v	*v	*	*	*	*
=180	=180	=180	=180	=180
*	*	*^	*	*
*ped	*	*	*	*	*
4FF##X' 4FFF##X	.	16D#</LL	4rdddyy	.	.
.	.	16A#<	.	.	.
.	.	16c#	.	.	.
.	.	16d#JJ	.	.	.
4c#' 4A# 4D#	.	8rbb	16ee#XLL	.	.
.	.	.	16dd#	.	.
*Xped	*	*	*	*	*
.	.	(>8aa#	16cc##X	.	.
.	.	.	16cc#XJJ	.	.
*ped	*	*	*	*	*
4GG#' 4GGG#	.	8aa#L	16b#XLL	.	.
.	.	.	16cc#	.	.
.	.	8gg#J)	16dd#	.	.
.	.	.	16f#JJ	.	.
4B#X' 4G# 4F#	.	8rbb	16b#LL	.	.
.	.	.	16a#	.	.
.	.	(>8dd#	16g#	.	.
*Xped	*	*	*	*	*
.	.	.	16f#JJ	.	.
!!LO:LB:g=original
=181	=181	=181	=181	=181	=181
*ped	*	*	*	*	*
4C#' 4CC#	.	8dd#XL	16d##XLL	.	.
.	.	.	16e#X	.	.
.	.	8cc#J)	16B	.	.
.	.	.	16g#JJ	.	.
4B'> 4E#X 4C#	.	8rbb	16dd#LL	.	.
.	.	.	16cc#	.	.
*Xped	*	*	*	*	*
.	.	(>8gg#	16b#X	.	.
.	.	.	16bnJJ	.	.
*ped	*	*	*	*	*
4FF#' 4FFF#	.	8gg#L	16a#LL	.	.
.	.	.	16b	.	.
.	.	8ff#J)	16cc#	.	.
.	.	.	16e#JJ	.	.
4c#' 4F#	.	8rgg	16a#LL	.	.
.	.	.	16g#	.	.
.	.	(>8cc#	16f#	.	.
*Xped	*	*	*	*	*
.	.	.	16e#JJ	.	.
*	*	*v	*v	*	*
=182	=182	=182	=182	=182
8AnL 8BB	.	16cc#LL 16d#X	.	.
!	!	!	!	!LO:HP:i:t=cres.
.	.	16ccn	.	.
16G#L	.	16b	.	.
16GnJJ	.	16a#XJJ	.	.
16F#LL	.	16anLL	.	.
16F#X	.	16g# 16dn	.	.
16An	.	16f#	.	.
16G#XJJ	.	16e#XJJ)	.	.
16BLL 16C#	.	(>16ddny/LL 16e#/	.	.
16A#X	.	16cc#y	.	.
16An	.	16ccn	.	.
16G#JJ	.	16bJJ	.	.
16GnLL	.	16a#XLL 16en	.	.
16B	.	16g#	.	.
16A#X	.	16f##X	.	.
16c#JJ	.	16a#JJ	.	.
=183	=183	=183	=183	=183
16c#LL 16F#	.	16ee/LL 16f##X/	.	.
16cnX	.	16dd#	.	.
16B	.	16ddn	.	.
16A#JJ	.	16cc#XJJ	.	.
4g#> 4d#> 4G#	.	16b/LL	.	<
.	.	16a#	.	.
.	.	16cc#	.	.
.	.	16bJJ)	.	.
*	*	*Xtuplet	*	*
!LO:N:vis=8	!	!	!	!
4dn<\ 4E#X<\	.	12gg#/L 12b/ 4g#/	.	.
.	.	12ff##X 12a#	.	.
.	.	.	.	.
.	.	12gg#J 12b	.	.
*	*	*Xtuplet	*	*
!LO:N:vis=6	!	!	!	!
(>12r	.	12aan/L 12b#X/	.	.
12ryy	.	12aa# 12cc#	.	.
12e#X> 12G#	.	(>12bbJ 12cc##X	.	.
=184	=184	=184	=184	=184
!	!	!LO:S:s=1:note:problem:note-level slur	!	!
8f#> 8F#	.	8bbL 8dd# 8b	.	.
8cc#>L	.	8aa# 8ee	.	[
8b>	.	8gg# 8dd#	.	.
8cc#>J	.	8aa#J 8ee	.	.
8b>L	.	8gg#L 8dd#	.	.
8a#>	.	8aa# 8cc#	.	.
8g#>	.	8bb 8b	.	.
8a#>J	.	8ff#J 8cc#)	.	.
!!LO:PB:g=original
=185	=185	=185	=185	=185
*^	*	*	*	*
*	*	*	*^	*	*
2.rbyy	8g#>L	.	8ee/L 8b/	2reyy	.	.
.	8f#>	.	8ff# 8a#	.	.	.
.	8e>	.	8gg# 8g#	.	.	.
.	8f#>J	.	8dd#J 8a#	.	.	.
!	!	!	!LO:TX:b:i:t=ritenuto	!	!	!
.	8eL	.	8cc#L	4.g#	.	.
.	8G#	.	8dd# 8b#X 8f#	.	.	.
4e>	8c#	.	8ee 8cc#	.	.	.
.	8F#J	.	8a#J 8f#	8rByy	.	.
*v	*v	*	*	*	*	*
=186	=186	=186	=186	=186	=186
*ped	*	*	*	*	*
!LO:TX:t=P:złe wyświetlanie łuku:problem	!	!LO:TX:b:i:t=dolce	!	!	!
!	!	!LO:TX:a:B:t=in tempo	!	!	!
N(>16BBLL	.	8b) 8e	2.rAyy	.	.
16F#	.	.	.	.	.
16B	.	8r	.	.	.
16c#JJ	.	.	.	.	.
4r	.	16d#LL	.	.	.
.	.	16e	.	.	.
*Xped	*	*	*	*	*
.	.	16f#	.	.	.
.	.	16bJJN)	.	.	.
*ped	*	*	*	*	*
!LO:TX:t=P:złe wyświetlanie łuku:problem	!	!	!	!	!
N(<16BBLL	.	[>4g#	.	.	.
16F#	.	.	.	.	.
16B	.	.	.	.	.
16c#JJ	.	.	.	.	.
4r	.	8g#L]	16d#LL	.	.
.	.	.	16e	.	.
*Xped	*	*	*	*	*
.	.	16f#Jk	16f#	.	.
.	.	16rbbyy	16dd#JJN)	.	.
=187	=187	=187	=187	=187	=187
*ped	*	*	*	*	*
!LO:TX:t=P:złe wyświetlanie łuku:problem	!	!	!	!	!
N(>16GG#LL	.	(>/[>4cc#	4rAyy	.	.
16D#	.	.	.	.	.
16G#	.	.	.	.	.
16A#JJ	.	.	.	.	.
4r	.	8.cc#L]	16BLL	.	.
.	.	.	16c#	.	.
*Xped	*	*	*	*	*
.	.	.	16d#	.	.
.	.	16bJk)	16bJJN)	.	.
*ped	*	*	*	*	*
!LO:TX:t=P:złe wyświetlanie łuku:problem	!	!	!	!	!
N(>16CC#\LL	.	(>[>4a# 4e#X	4rAyy	.	.
16GG#	.	.	.	.	.
16C#	.	.	.	.	.
16G#JJ	.	.	.	.	.
4ryy	.	8a#L]	16BLL	.	.
.	.	.	16c#J	.	.
*	*	*tuplet	*	*	*
.	.	24a#L	8e#JN)	.	.
.	.	24b	.	.	.
*Xped	*	*	*	*	*
.	.	24g#JJ	.	.	.
=188	=188	=188	=188	=188	=188
*^	*	*	*^	*	*
*ped	*	*	*	*	*	*	*
!	!LO:TX:t=P:złe wyświetlanie łuku:problem	!	!	!	!	!	!
4ryy	N(<16FF#\LL	.	[>4g# N[<4en	2.ryy	4rCyy	.	.
.	16C#	.	.	.	.	.	.
.	16F#	.	.	.	.	.	.
.	16G#JJ	.	.	.	.	.	.
!	!	!	!	!LO:TX:t=P:problem:nie wyświetla się wspólna belka dla 8g# i 8f#	!	!	!
16en>N] 16A#>LL	4rD	.	8g#]LL	.	16rcyy	.	.
16e>	.	.	.	.	8.e/	.	.
*Xped	*	*	*	*	*	*	*
16f#>	.	.	8f#)JJ	.	.	.	.
16b>JJ	.	.	.	.	.	.	.
*ped	*	*	*	*	*	*	*
!	!LO:TX:t=P:złe wyświetlanie łuku:problem	!	!LO:S:s=1:note:problem:note-level slu	!	!	!	!
4ryy	N(<16FF#LL	.	(>[>4a# 4f# N[<4eN)	.	4rEyy	.	.
.	16C#	.	.	.	.	.	.
.	16F#	.	.	.	.	.	.
.	16BJJ	.	.	.	.	.	.
!LO:TX:t=P:problem:problem z dodaniem ligatury od 16e do 4e w kolejnym takcie	!	!	!LO:N:vis=4	!	!	!	!
16e>LLN]	4c#	.	16a#L] 16f#	4ryy	16reyy	.	.
16f#>	.	.	8.	.	N[>8.f#/	.	.
*Xped	*	*	*	*	*	*	*
16b>	.	.	.	.	.	.	.
16dd#>JJ	.	.	.	.	.	.	.
!!LO:LB:g=original
=189	=189	=189	=189	=189	=189	=189	=189
*ped	*	*	*	*	*	*	*
!	!LO:TX:t=P:cross-staff slur:problem	!	!	!	!	!	!
8rcyy	16FF#LL	.	[>4cc# [>4a# [>4f#N] 4e	4rbbbyy	4rGyy	.	[
.	16C#	.	.	.	.	.	.
[>8ryy	16F#	.	.	.	.	.	.
.	[>16c#JJ	.	.	.	.	.	.
4ryy	8.c#L] 8.F#]	.	16cc#LL] 16a#] 16f#]	16reeeeyy	4e\N)	.	.
.	.	.	16a#	8a#\	.	.	.
.	.	.	16gg#/	.	.	.	.
.	[>16F#Jk	.	32rff	16raaaayy	.	.	.
.	.	.	(>32gg#JJk	.	.	.	.
*Xped	*	*	*	*	*	*	*
*	*	*	*tuplet	*	*Xtuplet	*	*
!LO:TUP:a	!	!	!LO:TUP:b	!	!	!	!
!	!	!	!LO:TX:t=P:złe wyświetlanie "3" od trioli:problem	!	!	!	!
12e>LL	2F#]	.	12gg#/L	2a#/	2ryy	.	.
12d#>	.	.	12.ff#	.	.	.	.
12c#>JJ	.	.	.	.	.	.	.
.	.	.	24eeJ	.	.	.	.
*Xtuplet	*	*	*Xtuplet	*	*	*	*
12g#>LL	.	.	12ee/L	.	.	.	.
12f#>	.	.	12dd#)	.	.	.	.
24re>	.	.	24ree	.	.	.	.
24e#X>JJ	.	.	(>24cc##XJk	.	.	.	.
*v	*v	*	*	*	*	*	*
*	*	*	*v	*v	*	*
=190	=190	=190	=190	=190	=190
*ped	*	*tuplet	*	*	*
!	!	!LO:TX:t=P:problem:w źródle brak klamry kwadratowej	!	!	!
N(>16BBLL	.	12eeL 12g#	4b	.	.
16F#	.	.	.	.	.
.	.	12dd#J 12f#	.	.	.
16B	.	.	.	.	.
.	.	12rb)	.	.	.
16c#JJ	.	.	.	.	.
8r	.	16d#LL	2rAyy	.	.
*Xped	*	*	*	*	*
.	.	16e	.	.	.
16r	.	16f#	.	.	.
16FF#	.	16bJJN)	.	.	.
*ped	*	*	*	*	*
!LO:TX:t=P:cross-staff slur:problem	!	!	!	!	!
N(<16FF#LL	.	[>4g#	.	.	.
16F#	.	.	.	.	.
16B	.	.	.	.	.
16c#JJ	.	.	.	.	.
4r	.	8g#L]	16d#LL	.	.
.	.	.	16e	.	.
.	.	8f#Jk	16f#	.	.
*Xped	*	*	*	*	*
.	.	.	16dd#JJ	.	.
=191	=191	=191	=191	=191	=191
*^	*	*	*	*	*
*ped	*	*	*	*	*	*
!	!LO:TX:t=P:cross-staff slur:problem	!	!	!	!	!
4rfyy	>16GG#LL	.	[4cc#/N)	4rdyy	.	[
.	16D#	.	.	.	.	.
.	16G#	.	.	.	.	.
.	16A#JJ	.	.	.	.	.
16B>LL	8r	.	8.cc#L]	4ryy	.	.
*Xped	*	*	*	*	*	*
16c#>	.	.	.	.	.	.
16d#>	16r	.	.	.	.	.
*ped	*	*	*	*	*	*
16b>JJ	16CC#/	.	16bJk	.	.	.
8.rEyy	(<16CC#LL	.	[>4a# [<4e#X 4BN	8rFyy	.	.
.	16GG#	.	.	.	.	.
.	16C#	.	.	4.C#<	.	.
4G#	16G#JJ	.	.	.	.	.
.	16B>LL	.	8a#L] 8e#]	.	.	.
.	16c#>J	.	.	.	.	.
.	8e>J)	.	16a#L	.	.	.
.	.	.	.	.	.	.
.	.	.	8qqb/L	.	.	.
.	.	.	8qqa#/	.	.	.
.	.	.	8qqg#/	.	.	.
.	.	.	8qqa#/	.	.	.
.	.	.	8qqcc#/	.	.	.
.	.	.	8qqb/J	.	.	.
*Xped	*	*	*	*	*	*
16rEyy	.	.	16g#JJ 16B	.	.	.
!!LO:LB:g=original
=192	=192	=192	=192	=192	=192	=192
*	*	*	*	*^	*	*
*ped	*	*	*	*	*	*	*
!	!LO:TX:t=P:cross-staff slur:problem	!	!	!	!	!	!
4rCyy	16FF#\LL	.	[>4g# [>4en 4B	4rccccyy	2.ryy	.	.
.	16C#	.	.	.	.	.	.
.	16F#	.	.	.	.	.	.
.	16G#JJ	.	.	.	.	.	.
16A#>\LL	4rD	.	8g#L] 8e]	16rbbbyy	.	.	.
16e>\	.	.	.	8.e/	.	.	.
.	.	.	.	.	.	.	.
16f#>\	.	.	8f#J	.	.	.	.
*Xped	*	*	*	*	*	*	*
16b>\JJ	.	.	.	.	.	.	.
*ped	*	*	*	*	*	*	*
!	!LO:TX:t=P:cross-staff slur:problem	!	!	!	!	!	!
4rCyy	16FFF#/LL	.	[>4a# 4f# N[<4e	4rfffyy	.	.	.
.	16FF#	.	.	.	.	.	.
.	16C#	.	.	.	.	.	.
.	16F#JJ	.	.	.	.	.	.
!	!	!	!LO:TX:a:t=P:note position:w źródle 8a# 8f# przed 4e i 16e:problem	!	!LO:TX:t=P:złe wyświetlanie ligatur:problem	!	!
!	!	!	!	!	!LO:TX:t=P:problem:8e i 16e powinny się na siebie nakładać	!	!
16e>\LL	4c#	.	8a#L] 8f#	16rgggyy	[<4e/N]	.	.
16f#>\	.	.	.	[<8.f#/	.	.	.
16b>\	.	.	8bJ	.	.	.	.
*Xped	*	*	*	*	*	*	*
16dd#>\JJ	.	.	.	.	.	.	.
*	*	*	*	*v	*v	*	*
=193	=193	=193	=193	=193	=193	=193
*	*	*	*	*^	*	*
*ped	*	*	*	*	*	*	*
!	!LO:TX:t=P:łuk nakłada się na nuty:problem	!	!	!	!	!	!
8rgyy	N(>16FF#LL	.	4cc# 4a# 4f#] 4e]	4rByy	2ryy	.	.
.	16C#	.	.	.	.	.	.
N[>8.F#	16F#	.	.	.	.	.	.
.	[>16c#JJ	.	.	.	.	.	.
!	!LO:N:vis=4	!	!	!	!	!	!
.	8c#] 8F#N]	.	16eLL	4e	.	.	.
*Xped	*	*	*	*	*	*	*
4a#>	.	.	16a#	.	.	.	<
.	16r	.	16ee#X	.	.	.	.
.	16FFF#/'<	.	16ff#JJ	.	.	.	.
*ped	*	*	*	*	*	*	*
*	*	*	*Xtuplet	*	*	*	*
.	(>16FF#LL	.	12ff##XL	[<4een	12ryy	.	.
4ryy	16C#	.	.	.	.	.	.
.	.	.	12a#	.	6a#\	.	.
.	16F#	.	.	.	.	.	.
.	.	.	12gg#J	.	.	.	.
.	16c#JJ	.	.	.	.	.	.
*clefG2	*	*	*	*	*	*	*
.	16f#\LL	.	16gg##XLL	8eeL]	4ryy	.	.
!LO:TX:t=P:podwójne wyświetlanie klucza F4:problem	!	!	!	!	!	!	!
8.rfffyy	16cc#JJ)	.	16aa#	.	.	.	.
.	8rb	.	16ddd#	16ff##L	.	.	.
*Xped	*	*	*	*	*	*	*
.	.	.	16ccc#JJ	16eeJJ	.	.	[[
*	*	*	*	*v	*v	*	*
*v	*v	*	*	*	*	*
*clefF4	*	*	*	*	*
=194	=194	=194	=194	=194	=194
*ped	*	*	*	*	*
(>/8BBBL	.	4bbN)	2dd#	.	.
16FF#L	.	.	.	.	.
16BBJJ	.	.	.	.	.
!	!	!LO:TX:t=P:cross-staff slur:problem	!	!	!
16F#LL	.	(>4bb	.	.	.
16An	.	.	.	.	.
16d#>	.	.	.	.	.
16f#>JJ)	.	.	.	.	.
.	.	.	.	.	.
2an>	.	4dd#	2reyy	.	.
.	.	8.gg#L	.	.	.
*Xped	*	*	*	*	*
.	.	16ff#Jk	.	.	.
!!LO:LB:g=original
=195	=195	=195	=195	=195	=195
*ped	*	*	*	*	*
(>/8BBBL	.	2ee#X	4ddn 4g#	.	.
16BBL	.	.	.	.	.
16DnJJ	.	.	.	.	.
16G#LL	.	.	8.cc#L	.	.
16B	.	.	.	.	.
16dn	.	.	.	.	.
*Xped	*	*	*	*	*
16g#JJ)	.	.	16bJk	.	.
4gn>	.	2a#	4een/	.	.
4rByy	.	.	8.dd#X/L 8.f#/	.	.
.	.	.	16cc#Jk 16e	.	.
=196	=196	=196	=196	=196	=196
!	!	!	!	!	!LO:HP:b=2
/16BBBLL	.	8bL	1d#	.	<
16FF#	.	.	.	.	.
16BB	.	8a#	.	.	.
16D#JJ	.	.	.	.	.
16F#LL	.	8an	.	.	.
16An	.	.	.	.	.
.	.	.	.	.	.
16A#X	.	8g#J	.	.	.
16BJJ	.	.	.	.	.
16cnLL	.	4f#	.	.	.
16An	.	.	.	.	.
!	!	!	!	!	!LO:HP:b=2
16F#	.	.	.	.	[>
16D#JJ	.	.	.	.	.
.	.	.	.	.	.
16Cn/LL	.	8.g#L	.	.	.
16BB	.	.	.	.	.
16AA#X	.	.	.	.	.
16AAnJJ	.	16f#Jk	.	.	]]
*	*	*v	*v	*	*
=197	=197	=197	=197	=197
*^	*	*	*	*
*ped	*	*	*	*	*
4d#</ 4B</	8GG#\L	.	2e#X	.	.
.	16CC#L	.	.	.	.
*Xped	*	*	*	*	*
.	16GG#JJ	.	.	.	.
8c#L 8A#X	16C#LL	.	.	.	.
.	16G#	.	.	.	.
8BJ 8E#X	16C#	.	.	.	.
.	16GG#JJ	.	.	.	<
*ped	*	*	*	*	*
!	!LO:TX:t=P:ł"tr" wyświetla się za wysoko:problem	!	!	!	!
!	!	!	!LO:TX:t=P:łuk pionowy od 4f# do 4En:problem	!	!
2ryy	2FF#T>	.	4f#) 4A#< 4En<	.	.
!	!	!	!LO:TX:t=P:łuk pionowy od 8.cc# do 8.A#:problem	!	!
!	!	!	!LO:N:n=2:vis=4	!	!
!	!	!	!LO:N:n=3:vis=4	!	!
.	.	.	8.cc#L 8.eny 8.A#<	.	.
.	.	.	.	.	.
.	.	.	16bJk	.	.
.	16qqEE#y/LL	.	.	.	.
*Xped	*	*	*	*	*
.	.	.	.	.	.
.	16qqFF#/JJ	.	.	.	[
*v	*v	*	*	*	*
=198	=198	=198	=198	=198
(<16BBB/LL	.	8b'> 8d# 8B	.	>
16FF#	.	.	.	.
16D#	.	16r	.	]
16FF#JJ	.	(>16d#	.	.
16BBB\LL	.	16c#<LL	.	.
16FF#	.	16B<	.	.
16D#	.	16F#<	.	.
!	!	!LO:TX:b:i:t=cresc. _ :problem:dynamics with extension lines	!	!LO:HP:b:i:t=cresc._:ext=ud
16FF#JJ	.	16d#JJ)	.	<
16BBB\LL	.	8r	.	.
16FF#	.	.	.	.
16D#	.	16r	.	.
16FF#JJ	.	(>16f#	.	.
16BBB\LL	.	16eLL	.	.
16FF#	.	16d#	.	.
16D#	.	16B	.	.
16FF#JJ	.	16f#JJ)	.	.
!!LO:LB:g=original
=199	=199	=199	=199	=199
16BBB/LL	.	8r	.	.
16FF#/	.	.	.	.
16D#	.	(>16r	.	.
16FF#JJ	.	16a#	.	.
16BBB/LL	.	16g#LL	.	.
16FF#	.	16f#	.	.
16D#	.	16d#	.	.
16FF#JJ	.	16BJJ	.	.
16BBB/LL	.	16cc#LL	.	.
16FF#	.	16b	.	.
16D#	.	16f#	.	.
16FF#JJ	.	16d#JJ	.	.
16BBB/LL	.	16ee/LL	.	.
16FF#	.	16dd#	.	.
16D#	.	16b	.	.
16FF#JJ	.	16f#JJ	.	.
=200	=200	=200	=200	=200
16BBB/LL	.	16gg#LL	.	.
16FF#	.	16ff#	.	.
16D#	.	16dd#	.	.
16FF#JJ	.	16bJJ	.	.
16BBB/LL	.	16ccc#LL	.	.
16FF#	.	16bb	.	.
16F#	.	16ff#	.	.
16FF#JJ	.	16dd#JJ	.	.
*	*	*8va	*	*
16BBB/LL	.	16eeeLL	.	.
16FF#	.	16ddd#	.	.
16D#	.	16bb	.	.
16FF#JJ	.	16ff#JJ	.	.
16BBB/LL	.	16ggg#LL	.	.
16FF#	.	16fff#	.	.
16F#	.	16ddd#	.	.
16FF#JJ	.	16bbJJ	.	.
=201	=201	=201	=201	=201
16BBB/LL	.	16cccc#LL	.	.
16FF#	.	16bbb	.	.
16D#	.	16ggg#	.	.
16FF#JJ	.	16fff#JJ	.	.
*	*	*X8va	*	*
!	!	!LO:TX:a:t=loco	!	!
16BBB/LL	.	16ddd#LL	.	.
16FF#	.	16bb	.	.
16F#	.	16gg#	.	.
16FF#JJ	.	16ff#JJ	.	.
16BBB/LL	.	16dd#LL	.	.
16FF#	.	16b	.	.
16D#	.	16g#	.	.
16FF#JJ	.	16f#JJ	.	.
16BBB\LL	.	16d#LL	.	.
16FF#	.	16B<	.	.
16D#	.	16G#<	.	.
16FF#JJ	.	16F#<JJ	.	[[
=202	=202	=202	=202	=202
4BBB)	.	4BB<)	.	.
4r	.	4r	.	.
4GG# 4GGG#	.	4B< 4D#<	.	f
4FF# 4FFF#	.	4c#< 4A#< 4E<	.	.
=203	=203	=203	=203	=203
4BB\ 4FF#\ 4BBB\	.	4d#< 4B< 4D#<	.	.
4r	.	4r	.	.
2F#\ 2FF#\	.	2ff# 2ee 2a# 2f#	.	ff
=204	=204	=204	=204	=204
1B;< 1F# 1BB	.	1dd#;> 1b 1f# 1d#	.	.
==	==	==	==	==
*-	*-	*-	*-	*-
!!title: @{OTL}; @{OPS} @{ONM} publisher: @{PPR}
!!!system-decoration: {(s1,s2)}
!!!RDF**kern: N = linked
!!!RDF**kern: > = above
!!!RDF**kern: < = below
!!!RDF**dynam: < = "cresc." fontstyle="italic"
!!!RDF**dynam: > = "dim." fontstyle="italic"
!!!ENC: Antoni Szymański
!!!END: 2020-10-25